(Created with emc2b post processor 2016/04/17 15:44)
(tool change to 3.175 mm Fraise de Finition)
T9 M06 G43
G17 G90 G21
G00 X12.5 Y142.359 S7000 M03
Z5
G83 Q5.5 G98 X12.5 Y142.359 Z-10.5 R1 F35
X12.5 Y87.562 
X12.5 Y25.25 
X75.5 Y25.25 
X75.5 Y87.562 
X75.5 Y142.359 
X104.5 Y142.359 
X104.5 Y87.562 
X104.5 Y25.25 
X167.5 Y25.25 
X167.5 Y87.562 
X167.5 Y142.359 
G80
G00 X78 Y174 S7000 M03
G83 Q5.5 X78 Y174 Z-0.5 R1 
X78 Y190 
X78 Y206 
X78 Y223 
X78 Y239 
X78 Y255 
X102 Y255 
X102 Y239 
X102 Y223 
X102 Y206 
X102 Y190 
X102 Y174 
G80
(ENTITIES socle_a)
G00 X40.587 Y133.75 S7000 M03
Z1
G01 Z-3.5 F25
X40.587 Y164 Z-3.5 F500
G03 X39 Y165.587 Z-3.5 I-1.587 J0 
G01 X27.026 Y165.587 Z-3.5 
G03 X26.597 Y165.528 Z-3.5 I0 J-1.587 
X-1.111 Y149.492 Z-3.5 I17.402 J-62.028 
X-1.587 Y148.359 Z-3.5 I1.111 J-1.133 
G01 X-1.587 Y136.359 Z-3.5 
G03 X0 Y134.771 Z-3.5 I1.587 J0 
G01 X4.412 Y134.771 Z-3.5 
X4.412 Y132.946 Z-3.5 
X0 Y132.946 Z-3.5 
G03 X-1.587 Y131.359 Z-3.5 I0 J-1.587 
G01 X-1.587 Y81.562 Z-3.5 
G03 X0 Y79.974 Z-3.5 I1.587 J0 
G01 X4.412 Y79.974 Z-3.5 
X4.412 Y78.149 Z-3.5 
X0 Y78.149 Z-3.5 
G03 X-1.587 Y76.562 Z-3.5 I0 J-1.587 
G01 X-1.587 Y19.25 Z-3.5 
G03 X0 Y17.662 Z-3.5 I1.587 J0 
G01 X4.412 Y17.662 Z-3.5 
X4.412 Y15.837 Z-3.5 
X0 Y15.837 Z-3.5 
G03 X-1.587 Y14.25 Z-3.5 I0 J-1.587 
G01 X-1.587 Y0 Z-3.5 
G03 X0 Y-1.587 Z-3.5 I1.587 J0 
G01 X25 Y-1.587 Z-3.5 
G03 X26.587 Y0 Z-3.5 I0 J1.587 
G01 X26.587 Y41.412 Z-3.5 
X61.412 Y41.412 Z-3.5 
X61.412 Y0 Z-3.5 
G03 X63 Y-1.587 Z-3.5 I1.587 J0 
G01 X88 Y-1.587 Z-3.5 
G03 X89.587 Y0 Z-3.5 I0 J1.587 
G01 X89.587 Y14.25 Z-3.5 
G03 X88 Y15.837 Z-3.5 I-1.587 J0 
G01 X83.587 Y15.837 Z-3.5 
X83.587 Y17.662 Z-3.5 
X88 Y17.662 Z-3.5 
G03 X89.587 Y19.25 Z-3.5 I0 J1.587 
G01 X89.587 Y76.562 Z-3.5 
G03 X88 Y78.149 Z-3.5 I-1.587 J0 
G01 X83.587 Y78.149 Z-3.5 
X83.587 Y79.974 Z-3.5 
X88 Y79.974 Z-3.5 
G03 X89.587 Y81.562 Z-3.5 I0 J1.587 
G01 X89.587 Y131.359 Z-3.5 
G03 X88 Y132.946 Z-3.5 I-1.587 J0 
G01 X83.587 Y132.946 Z-3.5 
X83.587 Y134.771 Z-3.5 
X88 Y134.771 Z-3.5 
G03 X89.587 Y136.359 Z-3.5 I0 J1.587 
G01 X89.587 Y148.359 Z-3.5 
G03 X89.111 Y149.492 Z-3.5 I-1.587 J0 
X61.402 Y165.528 Z-3.5 I-45.111 J-45.992 
X60.973 Y165.587 Z-3.5 I-0.428 J-1.528 
G01 X49 Y165.587 Z-3.5 
G03 X47.412 Y164 Z-3.5 I0 J-1.587 
G01 X47.412 Y105.087 Z-3.5 
X40.587 Y105.087 Z-3.5 
X40.587 Y133.75 Z-3.5 
Z-7 F25
X40.587 Y164 Z-7 F500
G03 X39 Y165.587 Z-7 I-1.587 J0 
G01 X27.026 Y165.587 Z-7 
G03 X26.597 Y165.528 Z-7 I0 J-1.587 
X-1.111 Y149.492 Z-7 I17.402 J-62.028 
X-1.587 Y148.359 Z-7 I1.111 J-1.133 
G01 X-1.587 Y136.359 Z-7 
G03 X0 Y134.771 Z-7 I1.587 J0 
G01 X4.412 Y134.771 Z-7 
X4.412 Y132.946 Z-7 
X0 Y132.946 Z-7 
G03 X-1.587 Y131.359 Z-7 I0 J-1.587 
G01 X-1.587 Y81.562 Z-7 
G03 X0 Y79.974 Z-7 I1.587 J0 
G01 X4.412 Y79.974 Z-7 
X4.412 Y78.149 Z-7 
X0 Y78.149 Z-7 
G03 X-1.587 Y76.562 Z-7 I0 J-1.587 
G01 X-1.587 Y19.25 Z-7 
G03 X0 Y17.662 Z-7 I1.587 J0 
G01 X4.412 Y17.662 Z-7 
X4.412 Y15.837 Z-7 
X0 Y15.837 Z-7 
G03 X-1.587 Y14.25 Z-7 I0 J-1.587 
G01 X-1.587 Y0 Z-7 
G03 X0 Y-1.587 Z-7 I1.587 J0 
G01 X25 Y-1.587 Z-7 
G03 X26.587 Y0 Z-7 I0 J1.587 
G01 X26.587 Y41.412 Z-7 
X61.412 Y41.412 Z-7 
X61.412 Y0 Z-7 
G03 X63 Y-1.587 Z-7 I1.587 J0 
G01 X88 Y-1.587 Z-7 
G03 X89.587 Y0 Z-7 I0 J1.587 
G01 X89.587 Y14.25 Z-7 
G03 X88 Y15.837 Z-7 I-1.587 J0 
G01 X83.587 Y15.837 Z-7 
X83.587 Y17.662 Z-7 
X88 Y17.662 Z-7 
G03 X89.587 Y19.25 Z-7 I0 J1.587 
G01 X89.587 Y76.562 Z-7 
G03 X88 Y78.149 Z-7 I-1.587 J0 
G01 X83.587 Y78.149 Z-7 
X83.587 Y79.974 Z-7 
X88 Y79.974 Z-7 
G03 X89.587 Y81.562 Z-7 I0 J1.587 
G01 X89.587 Y131.359 Z-7 
G03 X88 Y132.946 Z-7 I-1.587 J0 
G01 X83.587 Y132.946 Z-7 
X83.587 Y134.771 Z-7 
X88 Y134.771 Z-7 
G03 X89.587 Y136.359 Z-7 I0 J1.587 
G01 X89.587 Y148.359 Z-7 
G03 X89.111 Y149.492 Z-7 I-1.587 J0 
X61.402 Y165.528 Z-7 I-45.111 J-45.992 
X60.973 Y165.587 Z-7 I-0.428 J-1.528 
G01 X49 Y165.587 Z-7 
G03 X47.412 Y164 Z-7 I0 J-1.587 
G01 X47.412 Y105.087 Z-7 
X40.587 Y105.087 Z-7 
X40.587 Y133.75 Z-7 
Z-10.5 F25
X40.587 Y164 Z-10.5 F500
G03 X39 Y165.587 Z-10.5 I-1.587 J0 
G01 X27.026 Y165.587 Z-10.5 
G03 X26.597 Y165.528 Z-10.5 I0 J-1.587 
X-1.111 Y149.492 Z-10.5 I17.402 J-62.028 
X-1.587 Y148.359 Z-10.5 I1.111 J-1.133 
G01 X-1.587 Y136.359 Z-10.5 
G03 X0 Y134.771 Z-10.5 I1.587 J0 
G01 X4.412 Y134.771 Z-10.5 
X4.412 Y132.946 Z-10.5 
X0 Y132.946 Z-10.5 
G03 X-1.587 Y131.359 Z-10.5 I0 J-1.587 
G01 X-1.587 Y107.877 Z-10.5 
X-1.587 Y104.877 Z-7.5 
X-1.587 Y91.702 Z-7.5 
X-1.587 Y88.702 Z-10.5 
X-1.587 Y81.562 Z-10.5 
G03 X0 Y79.974 Z-10.5 I1.587 J0 
G01 X4.412 Y79.974 Z-10.5 
X4.412 Y78.149 Z-10.5 
X0 Y78.149 Z-10.5 
G03 X-1.587 Y76.562 Z-10.5 I0 J-1.587 
G01 X-1.587 Y19.25 Z-10.5 
G03 X0 Y17.662 Z-10.5 I1.587 J0 
G01 X4.412 Y17.662 Z-10.5 
X4.412 Y15.837 Z-10.5 
X0 Y15.837 Z-10.5 
G03 X-1.587 Y14.25 Z-10.5 I0 J-1.587 
G01 X-1.587 Y0 Z-10.5 
G03 X0 Y-1.587 Z-10.5 I1.587 J0 
G01 X25 Y-1.587 Z-10.5 
G03 X26.587 Y0 Z-10.5 I0 J1.587 
G01 X26.587 Y41.412 Z-10.5 
X61.412 Y41.412 Z-10.5 
X61.412 Y0 Z-10.5 
G03 X63 Y-1.587 Z-10.5 I1.587 J0 
G01 X88 Y-1.587 Z-10.5 
G03 X89.587 Y0 Z-10.5 I0 J1.587 
G01 X89.587 Y14.25 Z-10.5 
G03 X88 Y15.837 Z-10.5 I-1.587 J0 
G01 X83.587 Y15.837 Z-10.5 
X83.587 Y17.662 Z-10.5 
X88 Y17.662 Z-10.5 
G03 X89.587 Y19.25 Z-10.5 I0 J1.587 
G01 X89.587 Y38.356 Z-10.5 
X89.587 Y41.356 Z-7.5 
X89.587 Y54.531 Z-7.5 
X89.587 Y57.531 Z-10.5 
X89.587 Y76.562 Z-10.5 
G03 X88 Y78.149 Z-10.5 I-1.587 J0 
G01 X83.587 Y78.149 Z-10.5 
X83.587 Y79.974 Z-10.5 
X88 Y79.974 Z-10.5 
G03 X89.587 Y81.562 Z-10.5 I0 J1.587 
G01 X89.587 Y131.359 Z-10.5 
G03 X88 Y132.946 Z-10.5 I-1.587 J0 
G01 X83.587 Y132.946 Z-10.5 
X83.587 Y134.771 Z-10.5 
X88 Y134.771 Z-10.5 
G03 X89.587 Y136.359 Z-10.5 I0 J1.587 
G01 X89.587 Y148.359 Z-10.5 
G03 X89.111 Y149.492 Z-10.5 I-1.587 J0 
X61.402 Y165.528 Z-10.5 I-45.111 J-45.992 
X60.973 Y165.587 Z-10.5 I-0.428 J-1.528 
G01 X49 Y165.587 Z-10.5 
G03 X47.412 Y164 Z-10.5 I0 J-1.587 
G01 X47.412 Y105.087 Z-10.5 
X40.587 Y105.087 Z-10.5 
X40.587 Y133.75 Z-10.5 
G00 Z5
G90
(ENTITIES support_led_a_bas_droit)
X162.5 Y166.412 S7000 M03
Z1
G01 Z-3.5 F25
X170 Y166.412 Z-3.5 F500
G03 X171.587 Y168 Z-3.5 I0 J1.587 
G01 X171.587 Y180 Z-3.5 
G03 X170 Y181.587 Z-3.5 I-1.587 J0 
G01 X161.928 Y181.587 Z-3.5 
G03 X160.553 Y180.793 Z-3.5 I0 J-1.587 
G01 X153.625 Y168.793 Z-3.5 
G03 X155 Y166.412 Z-3.5 I1.374 J-0.793 
G01 X162.5 Y166.412 Z-3.5 
Z-7 F25
X170 Y166.412 Z-7 F500
G03 X171.587 Y168 Z-7 I0 J1.587 
G01 X171.587 Y180 Z-7 
G03 X170 Y181.587 Z-7 I-1.587 J0 
G01 X161.928 Y181.587 Z-7 
G03 X160.553 Y180.793 Z-7 I0 J-1.587 
G01 X153.625 Y168.793 Z-7 
G03 X155 Y166.412 Z-7 I1.374 J-0.793 
G01 X162.5 Y166.412 Z-7 
Z-10.5 F25
X168.873 Y166.412 Z-10.5 F500
X170 Y166.412 Z-9.373 
G03 X171.467 Y167.395 Z-7.5 I0 J1.587 
X171.587 Y168 Z-7.5 I-1.467 J0.604 
G01 X171.587 Y180 Z-7.5 
G03 X171.491 Y180.543 Z-7.5 I-1.587 J0 
X170 Y181.587 Z-9.439 I-1.491 J-0.543 
G01 X168.939 Y181.587 Z-10.5 
X161.928 Y181.587 Z-10.5 
G03 X160.553 Y180.793 Z-10.5 I0 J-1.587 
G01 X153.625 Y168.793 Z-10.5 
G03 X155 Y166.412 Z-10.5 I1.374 J-0.793 
G01 X162.5 Y166.412 Z-10.5 
G00 Z5
G90
(ENTITIES support_led_a_milieu_droit)
X173.5 Y197.587 S7000 M03
Z1
G01 Z-3.5 F25
X166 Y197.587 Z-3.5 F500
G03 X164.436 Y195.724 Z-3.5 I0 J-1.587 
G01 X166.552 Y183.724 Z-3.5 
G03 X168.115 Y182.412 Z-3.5 I1.563 J0.275 
G01 X181 Y182.412 Z-3.5 
G03 X182.587 Y184 Z-3.5 I0 J1.587 
G01 X182.587 Y196 Z-3.5 
G03 X181 Y197.587 Z-3.5 I-1.587 J0 
G01 X173.5 Y197.587 Z-3.5 
Z-7 F25
X166 Y197.587 Z-7 F500
G03 X164.436 Y195.724 Z-7 I0 J-1.587 
G01 X166.552 Y183.724 Z-7 
G03 X168.115 Y182.412 Z-7 I1.563 J0.275 
G01 X181 Y182.412 Z-7 
G03 X182.587 Y184 Z-7 I0 J1.587 
G01 X182.587 Y196 Z-7 
G03 X181 Y197.587 Z-7 I-1.587 J0 
G01 X173.5 Y197.587 Z-7 
Z-10.5 F25
X166 Y197.587 Z-10.5 F500
G03 X164.436 Y195.724 Z-10.5 I0 J-1.587 
G01 X166.552 Y183.724 Z-10.5 
G03 X168.115 Y182.412 Z-10.5 I1.563 J0.275 
G01 X180.252 Y182.412 Z-10.5 
X181 Y182.412 Z-9.752 
G03 X182.569 Y183.759 Z-7.5 I0 J1.587 
X182.587 Y184 Z-7.5 I-1.569 J0.24 
G01 X182.587 Y196 Z-7.5 
G03 X182.32 Y196.88 Z-7.5 I-1.587 J0 
X181 Y197.587 Z-9.059 I-1.32 J-0.88 
G01 X179.559 Y197.587 Z-10.5 
X173.5 Y197.587 Z-10.5 
G00 Z5
G90
(ENTITIES support_led_a_haut_droit)
X140.13 Y204.736 S7000 M03
Z1
G01 Z-3.5 F25
X147.28 Y198.736 Z-3.5 F500
G03 X148.301 Y198.365 Z-3.5 I1.02 J1.216 
G01 X149 Y198.365 Z-3.5 
G03 X150.587 Y199.952 Z-3.5 I0 J1.587 
G01 X150.587 Y211.952 Z-3.5 
G03 X149 Y213.54 Z-3.5 I-1.587 J0 
G01 X134 Y213.54 Z-3.5 
G03 X132.979 Y210.736 Z-3.5 I0 J-1.587 
G01 X140.13 Y204.736 Z-3.5 
Z-7 F25
X147.28 Y198.736 Z-7 F500
G03 X148.301 Y198.365 Z-7 I1.02 J1.216 
G01 X149 Y198.365 Z-7 
G03 X150.587 Y199.952 Z-7 I0 J1.587 
G01 X150.587 Y211.952 Z-7 
G03 X149 Y213.54 Z-7 I-1.587 J0 
G01 X134 Y213.54 Z-7 
G03 X132.979 Y210.736 Z-7 I0 J-1.587 
G01 X140.13 Y204.736 Z-7 
Z-10.5 F25
X147.28 Y198.736 Z-10.5 F500
G03 X148.301 Y198.365 Z-10.5 I1.02 J1.216 
G01 X149 Y198.365 Z-10.5 
G03 X149.088 Y198.367 Z-10.5 I0 J1.587 
X150.587 Y199.952 Z-8.094 I-0.088 J1.585 
G01 X150.587 Y200.547 Z-7.5 
X150.587 Y211.952 Z-7.5 
G03 X149.698 Y213.378 Z-7.5 I-1.587 J0 
X149 Y213.54 Z-8.223 I-0.698 J-1.425 
G01 X146.723 Y213.54 Z-10.5 
X134 Y213.54 Z-10.5 
G03 X132.979 Y210.736 Z-10.5 I0 J-1.587 
G01 X140.13 Y204.736 Z-10.5 
G00 Z5
G90
(ENTITIES support_led_b_bas_droit)
X162.5 Y215.412 S7000 M03
Z1
G01 Z-3.5 F25
X170 Y215.412 Z-3.5 F500
G03 X171.587 Y217 Z-3.5 I0 J1.587 
G01 X171.587 Y229 Z-3.5 
G03 X170 Y230.587 Z-3.5 I-1.587 J0 
G01 X161.928 Y230.587 Z-3.5 
G03 X160.553 Y229.793 Z-3.5 I0 J-1.587 
G01 X153.625 Y217.793 Z-3.5 
G03 X155 Y215.412 Z-3.5 I1.374 J-0.793 
G01 X162.5 Y215.412 Z-3.5 
Z-7 F25
X170 Y215.412 Z-7 F500
G03 X171.587 Y217 Z-7 I0 J1.587 
G01 X171.587 Y229 Z-7 
G03 X170 Y230.587 Z-7 I-1.587 J0 
G01 X161.928 Y230.587 Z-7 
G03 X160.553 Y229.793 Z-7 I0 J-1.587 
G01 X153.625 Y217.793 Z-7 
G03 X155 Y215.412 Z-7 I1.374 J-0.793 
G01 X162.5 Y215.412 Z-7 
Z-10.5 F25
X169.42 Y215.412 Z-10.5 F500
X170 Y215.412 Z-9.92 
G03 X171.585 Y216.927 Z-7.5 I0 J1.587 
X171.587 Y217 Z-7.5 I-1.585 J0.072 
G01 X171.587 Y229 Z-7.5 
G03 X171.22 Y230.015 Z-7.5 I-1.587 J0 
X170 Y230.587 Z-8.891 I-1.22 J-1.015 
G01 X168.391 Y230.587 Z-10.5 
X161.928 Y230.587 Z-10.5 
G03 X160.553 Y229.793 Z-10.5 I0 J-1.587 
G01 X153.625 Y217.793 Z-10.5 
G03 X155 Y215.412 Z-10.5 I1.374 J-0.793 
G01 X162.5 Y215.412 Z-10.5 
G00 Z5
G90
(ENTITIES support_led_b_milieu_droit)
X173.5 Y246.587 S7000 M03
Z1
G01 Z-3.5 F25
X166 Y246.587 Z-3.5 F500
G03 X164.436 Y244.724 Z-3.5 I0 J-1.587 
G01 X166.552 Y232.724 Z-3.5 
G03 X168.115 Y231.412 Z-3.5 I1.563 J0.275 
G01 X181 Y231.412 Z-3.5 
G03 X182.587 Y233 Z-3.5 I0 J1.587 
G01 X182.587 Y245 Z-3.5 
G03 X181 Y246.587 Z-3.5 I-1.587 J0 
G01 X173.5 Y246.587 Z-3.5 
Z-7 F25
X166 Y246.587 Z-7 F500
G03 X164.436 Y244.724 Z-7 I0 J-1.587 
G01 X166.552 Y232.724 Z-7 
G03 X168.115 Y231.412 Z-7 I1.563 J0.275 
G01 X181 Y231.412 Z-7 
G03 X182.587 Y233 Z-7 I0 J1.587 
G01 X182.587 Y245 Z-7 
G03 X181 Y246.587 Z-7 I-1.587 J0 
G01 X173.5 Y246.587 Z-7 
Z-10.5 F25
X166 Y246.587 Z-10.5 F500
G03 X164.436 Y244.724 Z-10.5 I0 J-1.587 
G01 X166.552 Y232.724 Z-10.5 
G03 X168.115 Y231.412 Z-10.5 I1.563 J0.275 
G01 X179.571 Y231.412 Z-10.5 
X181 Y231.412 Z-9.071 
G03 X182.327 Y232.129 Z-7.5 I0 J1.587 
X182.587 Y233 Z-7.5 I-1.327 J0.87 
G01 X182.587 Y245 Z-7.5 
G03 X182.567 Y245.252 Z-7.5 I-1.587 J0 
X181 Y246.587 Z-9.74 I-1.567 J-0.252 
G01 X180.24 Y246.587 Z-10.5 
X173.5 Y246.587 Z-10.5 
G00 Z5
G90
(ENTITIES support_led_b_haut_droit)
X140.13 Y253.736 S7000 M03
Z1
G01 Z-3.5 F25
X147.28 Y247.736 Z-3.5 F500
G03 X148.301 Y247.365 Z-3.5 I1.02 J1.216 
G01 X149 Y247.365 Z-3.5 
G03 X150.587 Y248.952 Z-3.5 I0 J1.587 
G01 X150.587 Y260.952 Z-3.5 
G03 X149 Y262.54 Z-3.5 I-1.587 J0 
G01 X134 Y262.54 Z-3.5 
G03 X132.979 Y259.736 Z-3.5 I0 J-1.587 
G01 X140.13 Y253.736 Z-3.5 
Z-7 F25
X147.28 Y247.736 Z-7 F500
G03 X148.301 Y247.365 Z-7 I1.02 J1.216 
G01 X149 Y247.365 Z-7 
G03 X150.587 Y248.952 Z-7 I0 J1.587 
G01 X150.587 Y260.952 Z-7 
G03 X149 Y262.54 Z-7 I-1.587 J0 
G01 X134 Y262.54 Z-7 
G03 X132.979 Y259.736 Z-7 I0 J-1.587 
G01 X140.13 Y253.736 Z-7 
Z-10.5 F25
X147.28 Y247.736 Z-10.5 F500
G03 X148.301 Y247.365 Z-10.5 I1.02 J1.216 
G01 X148.407 Y247.365 Z-10.5 
X149 Y247.365 Z-9.907 
G03 X150.585 Y248.867 Z-7.5 I0 J1.587 
X150.587 Y248.952 Z-7.5 I-1.585 J0.085 
G01 X150.587 Y260.952 Z-7.5 
G03 X150.228 Y261.958 Z-7.5 I-1.587 J0 
X149 Y262.54 Z-8.904 I-1.228 J-1.005 
G01 X147.404 Y262.54 Z-10.5 
X134 Y262.54 Z-10.5 
G03 X132.979 Y259.736 Z-10.5 I0 J-1.587 
G01 X140.13 Y253.736 Z-10.5 
G00 Z5
G90
(ENTITIES bras_b_haut_gauche)
X64.445 Y247.412 S7000 M03
Z1
G01 Z-3.5 F25
X86 Y247.412 Z-3.5 F500
G03 X87.27 Y248.047 Z-3.5 I0 J1.587 
X87.27 Y261.952 Z-3.5 I-9.27 J6.952 
X86 Y262.587 Z-3.5 I-1.27 J-0.952 
G01 X57.192 Y262.587 Z-3.5 
G03 X56.172 Y262.216 Z-3.5 I0 J-1.587 
G01 X41.871 Y250.216 Z-3.5 
G03 X42.891 Y247.412 Z-3.5 I1.02 J-1.216 
G01 X64.445 Y247.412 Z-3.5 
Z-7 F25
X86 Y247.412 Z-7 F500
G03 X87.27 Y248.047 Z-7 I0 J1.587 
X87.27 Y261.952 Z-7 I-9.27 J6.952 
X86 Y262.587 Z-7 I-1.27 J-0.952 
G01 X57.192 Y262.587 Z-7 
G03 X56.172 Y262.216 Z-7 I0 J-1.587 
G01 X41.871 Y250.216 Z-7 
G03 X42.891 Y247.412 Z-7 I1.02 J-1.216 
G01 X64.445 Y247.412 Z-7 
Z-10.5 F25
X86 Y247.412 Z-10.5 F500
G03 X87.27 Y248.047 Z-10.5 I0 J1.587 
X87.27 Y261.952 Z-10.5 I-9.27 J6.952 
X86 Y262.587 Z-10.5 I-1.27 J-0.952 
G01 X82.292 Y262.587 Z-10.5 
X79.292 Y262.587 Z-7.5 
X66.117 Y262.587 Z-7.5 
X63.117 Y262.587 Z-10.5 
X57.192 Y262.587 Z-10.5 
G03 X56.172 Y262.216 Z-10.5 I0 J-1.587 
G01 X41.871 Y250.216 Z-10.5 
G03 X42.891 Y247.412 Z-10.5 I1.02 J-1.216 
G01 X64.445 Y247.412 Z-10.5 
G00 Z5
G90
(ENTITIES bras_b_milieu_gauche)
X51.673 Y231.412 S7000 M03
Z1
G01 Z-3.5 F25
X86 Y231.412 Z-3.5 F500
G03 X87.27 Y232.047 Z-3.5 I0 J1.587 
X87.27 Y245.952 Z-3.5 I-9.27 J6.952 
X86 Y246.587 Z-3.5 I-1.27 J-0.952 
G01 X19.463 Y246.587 Z-3.5 
G03 X17.899 Y245.275 Z-3.5 I0 J-1.587 
G01 X15.783 Y233.275 Z-3.5 
G03 X17.347 Y231.412 Z-3.5 I1.563 J-0.275 
G01 X51.673 Y231.412 Z-3.5 
Z-7 F25
X86 Y231.412 Z-7 F500
G03 X87.27 Y232.047 Z-7 I0 J1.587 
X87.27 Y245.952 Z-7 I-9.27 J6.952 
X86 Y246.587 Z-7 I-1.27 J-0.952 
G01 X19.463 Y246.587 Z-7 
G03 X17.899 Y245.275 Z-7 I0 J-1.587 
G01 X15.783 Y233.275 Z-7 
G03 X17.347 Y231.412 Z-7 I1.563 J-0.275 
G01 X51.673 Y231.412 Z-7 
Z-10.5 F25
X86 Y231.412 Z-10.5 F500
G03 X87.27 Y232.047 Z-10.5 I0 J1.587 
X87.27 Y245.952 Z-10.5 I-9.27 J6.952 
X86 Y246.587 Z-10.5 I-1.27 J-0.952 
G01 X69.565 Y246.587 Z-10.5 
X66.565 Y246.587 Z-7.5 
X53.39 Y246.587 Z-7.5 
X50.39 Y246.587 Z-10.5 
X19.463 Y246.587 Z-10.5 
G03 X17.899 Y245.275 Z-10.5 I0 J-1.587 
G01 X15.783 Y233.275 Z-10.5 
G03 X17.347 Y231.412 Z-10.5 I1.563 J-0.275 
G01 X51.673 Y231.412 Z-10.5 
G00 Z5
G90
(ENTITIES bras_b_bas_gauche)
X55.964 Y230.587 S7000 M03
Z1
G01 Z-3.5 F25
X25.928 Y230.587 Z-3.5 F500
G03 X24.553 Y228.206 Z-3.5 I0 J-1.587 
G01 X31.481 Y216.206 Z-3.5 
G03 X32.856 Y215.412 Z-3.5 I1.374 J0.793 
G01 X86 Y215.412 Z-3.5 
G03 X87.27 Y216.047 Z-3.5 I0 J1.587 
X87.27 Y229.952 Z-3.5 I-9.27 J6.952 
X86 Y230.587 Z-3.5 I-1.27 J-0.952 
G01 X55.964 Y230.587 Z-3.5 
Z-7 F25
X25.928 Y230.587 Z-7 F500
G03 X24.553 Y228.206 Z-7 I0 J-1.587 
G01 X31.481 Y216.206 Z-7 
G03 X32.856 Y215.412 Z-7 I1.374 J0.793 
G01 X86 Y215.412 Z-7 
G03 X87.27 Y216.047 Z-7 I0 J1.587 
X87.27 Y229.952 Z-7 I-9.27 J6.952 
X86 Y230.587 Z-7 I-1.27 J-0.952 
G01 X55.964 Y230.587 Z-7 
Z-7.5 F25
X53.063 Y230.587 Z-7.5 F500
X50.063 Y230.587 Z-10.5 
X25.928 Y230.587 Z-10.5 
G03 X24.553 Y228.206 Z-10.5 I0 J-1.587 
G01 X31.481 Y216.206 Z-10.5 
G03 X32.856 Y215.412 Z-10.5 I1.374 J0.793 
G01 X86 Y215.412 Z-10.5 
G03 X87.27 Y216.047 Z-10.5 I0 J1.587 
X87.27 Y229.952 Z-10.5 I-9.27 J6.952 
X86 Y230.587 Z-10.5 I-1.27 J-0.952 
G01 X69.238 Y230.587 Z-10.5 
X66.238 Y230.587 Z-7.5 
X55.964 Y230.587 Z-7.5 
G00 Z5
G90
(ENTITIES bras_a_haut_gauche)
X64.445 Y198.412 S7000 M03
Z1
G01 Z-3.5 F25
X86 Y198.412 F500
G03 X87.27 Y199.047 I0 J1.587 
X87.27 Y212.952 I-9.27 J6.952 
X86 Y213.587 I-1.27 J-0.952 
G01 X57.192 Y213.587 
G03 X56.172 Y213.216 I0 J-1.587 
G01 X41.871 Y201.216 
G03 X42.891 Y198.412 I1.02 J-1.216 
G01 X64.445 Y198.412 
Z-7 F25
X86 Y198.412 F500
G03 X87.27 Y199.047 I0 J1.587 
X87.27 Y212.952 I-9.27 J6.952 
X86 Y213.587 I-1.27 J-0.952 
G01 X57.192 Y213.587 
G03 X56.172 Y213.216 I0 J-1.587 
G01 X41.871 Y201.216 
G03 X42.891 Y198.412 I1.02 J-1.216 
G01 X64.445 Y198.412 
Z-10.5 F25
X86 Y198.412 F500
G03 X87.27 Y199.047 I0 J1.587 
X87.27 Y212.952 I-9.27 J6.952 
X86 Y213.587 I-1.27 J-0.952 
G01 X57.192 Y213.587 
G03 X56.172 Y213.216 I0 J-1.587 
G01 X41.871 Y201.216 
G03 X42.891 Y198.412 I1.02 J-1.216 
G01 X64.445 Y198.412 
G00 Z5
G90
(ENTITIES bras_a_milieu_gauche)
X51.673 Y182.412 S7000 M03
Z1
G01 Z-3.5 F25
X86 Y182.412 Z-3.5 F500
G03 X87.27 Y183.047 Z-3.5 I0 J1.587 
X87.27 Y196.952 Z-3.5 I-9.27 J6.952 
X86 Y197.587 Z-3.5 I-1.27 J-0.952 
G01 X19.463 Y197.587 Z-3.5 
G03 X17.899 Y196.275 Z-3.5 I0 J-1.587 
G01 X15.783 Y184.275 Z-3.5 
G03 X17.347 Y182.412 Z-3.5 I1.563 J-0.275 
G01 X51.673 Y182.412 Z-3.5 
Z-7 F25
X86 Y182.412 Z-7 F500
G03 X87.27 Y183.047 Z-7 I0 J1.587 
X87.27 Y196.952 Z-7 I-9.27 J6.952 
X86 Y197.587 Z-7 I-1.27 J-0.952 
G01 X19.463 Y197.587 Z-7 
G03 X17.899 Y196.275 Z-7 I0 J-1.587 
G01 X15.783 Y184.275 Z-7 
G03 X17.347 Y182.412 Z-7 I1.563 J-0.275 
G01 X51.673 Y182.412 Z-7 
Z-10.5 F25
X86 Y182.412 Z-10.5 F500
G03 X87.27 Y183.047 Z-10.5 I0 J1.587 
X87.27 Y196.952 Z-10.5 I-9.27 J6.952 
X86 Y197.587 Z-10.5 I-1.27 J-0.952 
G01 X74.133 Y197.587 Z-10.5 
X71.133 Y197.587 Z-7.5 
X57.958 Y197.587 Z-7.5 
X54.958 Y197.587 Z-10.5 
X19.463 Y197.587 Z-10.5 
G03 X17.899 Y196.275 Z-10.5 I0 J-1.587 
G01 X15.783 Y184.275 Z-10.5 
G03 X17.347 Y182.412 Z-10.5 I1.563 J-0.275 
G01 X51.673 Y182.412 Z-10.5 
G00 Z5
G90
(ENTITIES bras_a_bas_gauche)
X55.964 Y181.587 S7000 M03
Z1
G01 Z-3.5 F25
X25.928 Y181.587 Z-3.5 F500
G03 X24.553 Y179.206 Z-3.5 I0 J-1.587 
G01 X31.481 Y167.206 Z-3.5 
G03 X32.856 Y166.412 Z-3.5 I1.374 J0.793 
G01 X86 Y166.412 Z-3.5 
G03 X87.27 Y167.047 Z-3.5 I0 J1.587 
X87.27 Y180.952 Z-3.5 I-9.27 J6.952 
X86 Y181.587 Z-3.5 I-1.27 J-0.952 
G01 X55.964 Y181.587 Z-3.5 
Z-7 F25
X25.928 Y181.587 Z-7 F500
G03 X24.553 Y179.206 Z-7 I0 J-1.587 
G01 X31.481 Y167.206 Z-7 
G03 X32.856 Y166.412 Z-7 I1.374 J0.793 
G01 X86 Y166.412 Z-7 
G03 X87.27 Y167.047 Z-7 I0 J1.587 
X87.27 Y180.952 Z-7 I-9.27 J6.952 
X86 Y181.587 Z-7 I-1.27 J-0.952 
G01 X55.964 Y181.587 Z-7 
Z-7.5 F25
X53.063 Y181.587 Z-7.5 F500
X50.063 Y181.587 Z-10.5 
X25.928 Y181.587 Z-10.5 
G03 X24.553 Y179.206 Z-10.5 I0 J-1.587 
G01 X31.481 Y167.206 Z-10.5 
G03 X32.856 Y166.412 Z-10.5 I1.374 J0.793 
G01 X86 Y166.412 Z-10.5 
G03 X87.27 Y167.047 Z-10.5 I0 J1.587 
X87.27 Y180.952 Z-10.5 I-9.27 J6.952 
X86 Y181.587 Z-10.5 I-1.27 J-0.952 
G01 X69.238 Y181.587 Z-10.5 
X66.238 Y181.587 Z-7.5 
X55.964 Y181.587 Z-7.5 
G00 Z5
G90
(ENTITIES socle_b)
X139.412 Y73.25 S7000 M03
Z1
G01 Z-3.5 F25
X139.412 Y43 Z-3.5 F500
G03 X141 Y41.412 Z-3.5 I1.587 J0 
G01 X153.412 Y41.412 Z-3.5 
X153.412 Y0 Z-3.5 
G03 X155 Y-1.587 Z-3.5 I1.587 J0 
G01 X180 Y-1.587 Z-3.5 
G03 X181.587 Y0 Z-3.5 I0 J1.587 
G01 X181.587 Y14.25 Z-3.5 
G03 X180 Y15.837 Z-3.5 I-1.587 J0 
G01 X175.587 Y15.837 Z-3.5 
X175.587 Y17.662 Z-3.5 
X180 Y17.662 Z-3.5 
G03 X181.587 Y19.25 Z-3.5 I0 J1.587 
G01 X181.587 Y76.562 Z-3.5 
G03 X180 Y78.149 Z-3.5 I-1.587 J0 
G01 X175.587 Y78.149 Z-3.5 
X175.587 Y79.974 Z-3.5 
X180 Y79.974 Z-3.5 
G03 X181.587 Y81.562 Z-3.5 I0 J1.587 
G01 X181.587 Y131.359 Z-3.5 
G03 X180 Y132.946 Z-3.5 I-1.587 J0 
G01 X175.587 Y132.946 Z-3.5 
X175.587 Y134.771 Z-3.5 
X180 Y134.771 Z-3.5 
G03 X181.587 Y136.359 Z-3.5 I0 J1.587 
G01 X181.587 Y148.359 Z-3.5 
G03 X181.111 Y149.492 Z-3.5 I-1.587 J0 
X153.402 Y165.528 Z-3.5 I-45.111 J-45.992 
X152.973 Y165.587 Z-3.5 I-0.428 J-1.528 
G01 X119.026 Y165.587 Z-3.5 
G03 X118.597 Y165.528 Z-3.5 I0 J-1.587 
X90.888 Y149.492 Z-3.5 I17.402 J-62.028 
X90.412 Y148.359 Z-3.5 I1.111 J-1.133 
G01 X90.412 Y136.359 Z-3.5 
G03 X92 Y134.771 Z-3.5 I1.587 J0 
G01 X96.412 Y134.771 Z-3.5 
X96.412 Y132.946 Z-3.5 
X92 Y132.946 Z-3.5 
G03 X90.412 Y131.359 Z-3.5 I0 J-1.587 
G01 X90.412 Y81.562 Z-3.5 
G03 X92 Y79.974 Z-3.5 I1.587 J0 
G01 X96.412 Y79.974 Z-3.5 
X96.412 Y78.149 Z-3.5 
X92 Y78.149 Z-3.5 
G03 X90.412 Y76.562 Z-3.5 I0 J-1.587 
G01 X90.412 Y19.25 Z-3.5 
G03 X92 Y17.662 Z-3.5 I1.587 J0 
G01 X96.412 Y17.662 Z-3.5 
X96.412 Y15.837 Z-3.5 
X92 Y15.837 Z-3.5 
G03 X90.412 Y14.25 Z-3.5 I0 J-1.587 
G01 X90.412 Y0 Z-3.5 
G03 X92 Y-1.587 Z-3.5 I1.587 J0 
G01 X117 Y-1.587 Z-3.5 
G03 X118.587 Y0 Z-3.5 I0 J1.587 
G01 X118.587 Y41.412 Z-3.5 
X131 Y41.412 Z-3.5 
G03 X132.587 Y43 Z-3.5 I0 J1.587 
G01 X132.587 Y101.912 Z-3.5 
X139.412 Y101.912 Z-3.5 
X139.412 Y73.25 Z-3.5 
Z-7 F25
X139.412 Y43 Z-7 F500
G03 X141 Y41.412 Z-7 I1.587 J0 
G01 X153.412 Y41.412 Z-7 
X153.412 Y0 Z-7 
G03 X155 Y-1.587 Z-7 I1.587 J0 
G01 X180 Y-1.587 Z-7 
G03 X181.587 Y0 Z-7 I0 J1.587 
G01 X181.587 Y14.25 Z-7 
G03 X180 Y15.837 Z-7 I-1.587 J0 
G01 X175.587 Y15.837 Z-7 
X175.587 Y17.662 Z-7 
X180 Y17.662 Z-7 
G03 X181.587 Y19.25 Z-7 I0 J1.587 
G01 X181.587 Y76.562 Z-7 
G03 X180 Y78.149 Z-7 I-1.587 J0 
G01 X175.587 Y78.149 Z-7 
X175.587 Y79.974 Z-7 
X180 Y79.974 Z-7 
G03 X181.587 Y81.562 Z-7 I0 J1.587 
G01 X181.587 Y131.359 Z-7 
G03 X180 Y132.946 Z-7 I-1.587 J0 
G01 X175.587 Y132.946 Z-7 
X175.587 Y134.771 Z-7 
X180 Y134.771 Z-7 
G03 X181.587 Y136.359 Z-7 I0 J1.587 
G01 X181.587 Y148.359 Z-7 
G03 X181.111 Y149.492 Z-7 I-1.587 J0 
X153.402 Y165.528 Z-7 I-45.111 J-45.992 
X152.973 Y165.587 Z-7 I-0.428 J-1.528 
G01 X119.026 Y165.587 Z-7 
G03 X118.597 Y165.528 Z-7 I0 J-1.587 
X90.888 Y149.492 Z-7 I17.402 J-62.028 
X90.412 Y148.359 Z-7 I1.111 J-1.133 
G01 X90.412 Y136.359 Z-7 
G03 X92 Y134.771 Z-7 I1.587 J0 
G01 X96.412 Y134.771 Z-7 
X96.412 Y132.946 Z-7 
X92 Y132.946 Z-7 
G03 X90.412 Y131.359 Z-7 I0 J-1.587 
G01 X90.412 Y81.562 Z-7 
G03 X92 Y79.974 Z-7 I1.587 J0 
G01 X96.412 Y79.974 Z-7 
X96.412 Y78.149 Z-7 
X92 Y78.149 Z-7 
G03 X90.412 Y76.562 Z-7 I0 J-1.587 
G01 X90.412 Y19.25 Z-7 
G03 X92 Y17.662 Z-7 I1.587 J0 
G01 X96.412 Y17.662 Z-7 
X96.412 Y15.837 Z-7 
X92 Y15.837 Z-7 
G03 X90.412 Y14.25 Z-7 I0 J-1.587 
G01 X90.412 Y0 Z-7 
G03 X92 Y-1.587 Z-7 I1.587 J0 
G01 X117 Y-1.587 Z-7 
G03 X118.587 Y0 Z-7 I0 J1.587 
G01 X118.587 Y41.412 Z-7 
X131 Y41.412 Z-7 
G03 X132.587 Y43 Z-7 I0 J1.587 
G01 X132.587 Y101.912 Z-7 
X139.412 Y101.912 Z-7 
X139.412 Y73.25 Z-7 
Z-10.5 F25
X139.412 Y43 Z-10.5 F500
G03 X141 Y41.412 Z-10.5 I1.587 J0 
G01 X153.412 Y41.412 Z-10.5 
X153.412 Y0 Z-10.5 
G03 X155 Y-1.587 Z-10.5 I1.587 J0 
G01 X180 Y-1.587 Z-10.5 
G03 X181.587 Y0 Z-10.5 I0 J1.587 
G01 X181.587 Y14.25 Z-10.5 
G03 X180 Y15.837 Z-10.5 I-1.587 J0 
G01 X175.587 Y15.837 Z-10.5 
X175.587 Y17.662 Z-10.5 
X180 Y17.662 Z-10.5 
G03 X181.587 Y19.25 Z-10.5 I0 J1.587 
G01 X181.587 Y30.522 Z-10.5 
X181.587 Y33.522 Z-7.5 
X181.587 Y46.697 Z-7.5 
X181.587 Y49.697 Z-10.5 
X181.587 Y76.562 Z-10.5 
G03 X180 Y78.149 Z-10.5 I-1.587 J0 
G01 X175.587 Y78.149 Z-10.5 
X175.587 Y79.974 Z-10.5 
X180 Y79.974 Z-10.5 
G03 X181.587 Y81.562 Z-10.5 I0 J1.587 
G01 X181.587 Y131.359 Z-10.5 
G03 X180 Y132.946 Z-10.5 I-1.587 J0 
G01 X175.587 Y132.946 Z-10.5 
X175.587 Y134.771 Z-10.5 
X180 Y134.771 Z-10.5 
G03 X181.587 Y136.359 Z-10.5 I0 J1.587 
G01 X181.587 Y148.359 Z-10.5 
G03 X181.111 Y149.492 Z-10.5 I-1.587 J0 
X153.402 Y165.528 Z-10.5 I-45.111 J-45.992 
X152.973 Y165.587 Z-10.5 I-0.428 J-1.528 
G01 X119.026 Y165.587 Z-10.5 
G03 X118.597 Y165.528 Z-10.5 I0 J-1.587 
X90.888 Y149.492 Z-10.5 I17.402 J-62.028 
X90.412 Y148.359 Z-10.5 I1.111 J-1.133 
G01 X90.412 Y136.359 Z-10.5 
G03 X92 Y134.771 Z-10.5 I1.587 J0 
G01 X96.412 Y134.771 Z-10.5 
X96.412 Y132.946 Z-10.5 
X92 Y132.946 Z-10.5 
G03 X90.412 Y131.359 Z-10.5 I0 J-1.587 
G01 X90.412 Y131.306 Z-10.5 
X90.412 Y128.306 Z-7.5 
X90.412 Y115.131 Z-7.5 
X90.412 Y112.131 Z-10.5 
X90.412 Y81.562 Z-10.5 
G03 X92 Y79.974 Z-10.5 I1.587 J0 
G01 X96.412 Y79.974 Z-10.5 
X96.412 Y78.149 Z-10.5 
X92 Y78.149 Z-10.5 
G03 X90.412 Y76.562 Z-10.5 I0 J-1.587 
G01 X90.412 Y19.25 Z-10.5 
G03 X92 Y17.662 Z-10.5 I1.587 J0 
G01 X96.412 Y17.662 Z-10.5 
X96.412 Y15.837 Z-10.5 
X92 Y15.837 Z-10.5 
G03 X90.412 Y14.25 Z-10.5 I0 J-1.587 
G01 X90.412 Y0 Z-10.5 
G03 X92 Y-1.587 Z-10.5 I1.587 J0 
G01 X117 Y-1.587 Z-10.5 
G03 X118.587 Y0 Z-10.5 I0 J1.587 
G01 X118.587 Y41.412 Z-10.5 
X131 Y41.412 Z-10.5 
G03 X132.587 Y43 Z-10.5 I0 J1.587 
G01 X132.587 Y101.912 Z-10.5 
X139.412 Y101.912 Z-10.5 
X139.412 Y73.25 Z-10.5 
G00 Z5
G90
(ENTITIES bras_a_bas_droit)
X124.035 Y181.587 S7000 M03
Z1
G01 Z-3.5 F25
X94 Y181.587 Z-3.5 F500
G03 X92.73 Y180.952 Z-3.5 I0 J-1.587 
X92.73 Y167.047 Z-3.5 I9.27 J-6.952 
X94 Y166.412 Z-3.5 I1.27 J0.952 
G01 X147.143 Y166.412 Z-3.5 
G03 X148.518 Y167.206 Z-3.5 I0 J1.587 
G01 X155.446 Y179.206 Z-3.5 
G03 X154.071 Y181.587 Z-3.5 I-1.374 J0.793 
G01 X124.035 Y181.587 Z-3.5 
Z-7 F25
X94 Y181.587 Z-7 F500
G03 X92.73 Y180.952 Z-7 I0 J-1.587 
X92.73 Y167.047 Z-7 I9.27 J-6.952 
X94 Y166.412 Z-7 I1.27 J0.952 
G01 X147.143 Y166.412 Z-7 
G03 X148.518 Y167.206 Z-7 I0 J1.587 
G01 X155.446 Y179.206 Z-7 
G03 X154.071 Y181.587 Z-7 I-1.374 J0.793 
G01 X124.035 Y181.587 Z-7 
Z-7.5 F25
X113.434 Y181.587 Z-7.5 F500
X110.434 Y181.587 Z-10.5 
X94 Y181.587 Z-10.5 
G03 X92.73 Y180.952 Z-10.5 I0 J-1.587 
X92.73 Y167.047 Z-10.5 I9.27 J-6.952 
X94 Y166.412 Z-10.5 I1.27 J0.952 
G01 X147.143 Y166.412 Z-10.5 
G03 X148.518 Y167.206 Z-10.5 I0 J1.587 
G01 X155.446 Y179.206 Z-10.5 
G03 X154.071 Y181.587 Z-10.5 I-1.374 J0.793 
G01 X129.609 Y181.587 Z-10.5 
X126.609 Y181.587 Z-7.5 
X124.035 Y181.587 Z-7.5 
G00 Z5
G90
(ENTITIES bras_a_milieu_droit)
X128.326 Y182.412 S7000 M03
Z1
G01 Z-3.5 F25
X162.652 Y182.412 Z-3.5 F500
G03 X164.216 Y184.275 Z-3.5 I0 J1.587 
G01 X162.1 Y196.275 Z-3.5 
G03 X160.536 Y197.587 Z-3.5 I-1.563 J-0.275 
G01 X94 Y197.587 Z-3.5 
G03 X92.73 Y196.952 Z-3.5 I0 J-1.587 
X92.73 Y183.047 Z-3.5 I9.27 J-6.952 
X94 Y182.412 Z-3.5 I1.27 J0.952 
G01 X128.326 Y182.412 Z-3.5 
Z-7 F25
X162.652 Y182.412 Z-7 F500
G03 X164.216 Y184.275 Z-7 I0 J1.587 
G01 X162.1 Y196.275 Z-7 
G03 X160.536 Y197.587 Z-7 I-1.563 J-0.275 
G01 X94 Y197.587 Z-7 
G03 X92.73 Y196.952 Z-7 I0 J-1.587 
X92.73 Y183.047 Z-7 I9.27 J-6.952 
X94 Y182.412 Z-7 I1.27 J0.952 
G01 X128.326 Y182.412 Z-7 
Z-10.5 F25
X162.652 Y182.412 Z-10.5 F500
G03 X164.216 Y184.275 Z-10.5 I0 J1.587 
G01 X162.1 Y196.275 Z-10.5 
G03 X160.536 Y197.587 Z-10.5 I-1.563 J-0.275 
G01 X128.957 Y197.587 Z-10.5 
X125.957 Y197.587 Z-7.5 
X112.782 Y197.587 Z-7.5 
X109.782 Y197.587 Z-10.5 
X94 Y197.587 Z-10.5 
G03 X92.73 Y196.952 Z-10.5 I0 J-1.587 
X92.73 Y183.047 Z-10.5 I9.27 J-6.952 
X94 Y182.412 Z-10.5 I1.27 J0.952 
G01 X128.326 Y182.412 Z-10.5 
G00 Z5
G90
(ENTITIES bras_a_haut_droit)
X115.554 Y198.412 S7000 M03
Z1
G01 Z-3.5 F25
X137.108 Y198.412 Z-3.5 F500
G03 X138.128 Y201.216 Z-3.5 I0 J1.587 
G01 X123.827 Y213.216 Z-3.5 
G03 X122.807 Y213.587 Z-3.5 I-1.02 J-1.216 
G01 X94 Y213.587 Z-3.5 
G03 X92.73 Y212.952 Z-3.5 I0 J-1.587 
X92.73 Y199.047 Z-3.5 I9.27 J-6.952 
X94 Y198.412 Z-3.5 I1.27 J0.952 
G01 X115.554 Y198.412 Z-3.5 
Z-7 F25
X137.108 Y198.412 Z-7 F500
G03 X138.128 Y201.216 Z-7 I0 J1.587 
G01 X123.827 Y213.216 Z-7 
G03 X122.807 Y213.587 Z-7 I-1.02 J-1.216 
G01 X94 Y213.587 Z-7 
G03 X92.73 Y212.952 Z-7 I0 J-1.587 
X92.73 Y199.047 Z-7 I9.27 J-6.952 
X94 Y198.412 Z-7 I1.27 J0.952 
G01 X115.554 Y198.412 Z-7 
Z-10.5 F25
X137.108 Y198.412 Z-10.5 F500
G03 X138.128 Y201.216 Z-10.5 I0 J1.587 
G01 X123.827 Y213.216 Z-10.5 
G03 X122.807 Y213.587 Z-10.5 I-1.02 J-1.216 
G01 X118.188 Y213.587 Z-10.5 
X115.188 Y213.587 Z-7.5 
X102.013 Y213.587 Z-7.5 
X99.013 Y213.587 Z-10.5 
X94 Y213.587 Z-10.5 
G03 X92.73 Y212.952 Z-10.5 I0 J-1.587 
X92.73 Y199.047 Z-10.5 I9.27 J-6.952 
X94 Y198.412 Z-10.5 I1.27 J0.952 
G01 X115.554 Y198.412 Z-10.5 
G00 Z5
G90
(ENTITIES bras_b_bas_droit)
X124.035 Y230.587 S7000 M03
Z1
G01 Z-3.5 F25
X94 Y230.587 Z-3.5 F500
G03 X92.73 Y229.952 Z-3.5 I0 J-1.587 
X92.73 Y216.047 Z-3.5 I9.27 J-6.952 
X94 Y215.412 Z-3.5 I1.27 J0.952 
G01 X147.143 Y215.412 Z-3.5 
G03 X148.518 Y216.206 Z-3.5 I0 J1.587 
G01 X155.446 Y228.206 Z-3.5 
G03 X154.071 Y230.587 Z-3.5 I-1.374 J0.793 
G01 X124.035 Y230.587 Z-3.5 
Z-7 F25
X94 Y230.587 Z-7 F500
G03 X92.73 Y229.952 Z-7 I0 J-1.587 
X92.73 Y216.047 Z-7 I9.27 J-6.952 
X94 Y215.412 Z-7 I1.27 J0.952 
G01 X147.143 Y215.412 Z-7 
G03 X148.518 Y216.206 Z-7 I0 J1.587 
G01 X155.446 Y228.206 Z-7 
G03 X154.071 Y230.587 Z-7 I-1.374 J0.793 
G01 X124.035 Y230.587 Z-7 
Z-8.189 F25
X123.346 Y230.587 Z-7.5 F500
X110.171 Y230.587 Z-7.5 
X107.171 Y230.587 Z-10.5 
X94 Y230.587 Z-10.5 
G03 X92.73 Y229.952 Z-10.5 I0 J-1.587 
X92.73 Y216.047 Z-10.5 I9.27 J-6.952 
X94 Y215.412 Z-10.5 I1.27 J0.952 
G01 X147.143 Y215.412 Z-10.5 
G03 X148.518 Y216.206 Z-10.5 I0 J1.587 
G01 X155.446 Y228.206 Z-10.5 
G03 X154.071 Y230.587 Z-10.5 I-1.374 J0.793 
G01 X126.346 Y230.587 Z-10.5 
X124.035 Y230.587 Z-8.189 
G00 Z5
G90
(ENTITIES bras_b_milieu_droit)
X128.326 Y231.412 S7000 M03
Z1
G01 Z-3.5 F25
X162.652 Y231.412 Z-3.5 F500
G03 X164.216 Y233.275 Z-3.5 I0 J1.587 
G01 X162.1 Y245.275 Z-3.5 
G03 X160.536 Y246.587 Z-3.5 I-1.563 J-0.275 
G01 X94 Y246.587 Z-3.5 
G03 X92.73 Y245.952 Z-3.5 I0 J-1.587 
X92.73 Y232.047 Z-3.5 I9.27 J-6.952 
X94 Y231.412 Z-3.5 I1.27 J0.952 
G01 X128.326 Y231.412 Z-3.5 
Z-7 F25
X162.652 Y231.412 Z-7 F500
G03 X164.216 Y233.275 Z-7 I0 J1.587 
G01 X162.1 Y245.275 Z-7 
G03 X160.536 Y246.587 Z-7 I-1.563 J-0.275 
G01 X94 Y246.587 Z-7 
G03 X92.73 Y245.952 Z-7 I0 J-1.587 
X92.73 Y232.047 Z-7 I9.27 J-6.952 
X94 Y231.412 Z-7 I1.27 J0.952 
G01 X128.326 Y231.412 Z-7 
Z-10.5 F25
X162.652 Y231.412 Z-10.5 F500
G03 X164.216 Y233.275 Z-10.5 I0 J1.587 
G01 X162.1 Y245.275 Z-10.5 
G03 X160.536 Y246.587 Z-10.5 I-1.563 J-0.275 
G01 X132.872 Y246.587 Z-10.5 
X129.872 Y246.587 Z-7.5 
X116.697 Y246.587 Z-7.5 
X113.697 Y246.587 Z-10.5 
X94 Y246.587 Z-10.5 
G03 X92.73 Y245.952 Z-10.5 I0 J-1.587 
X92.73 Y232.047 Z-10.5 I9.27 J-6.952 
X94 Y231.412 Z-10.5 I1.27 J0.952 
G01 X128.326 Y231.412 Z-10.5 
G00 Z5
G90
(ENTITIES bras_b_haut_droit)
X115.554 Y247.412 S7000 M03
Z1
G01 Z-3.5 F25
X137.108 Y247.412 F500
G03 X138.128 Y250.216 I0 J1.587 
G01 X123.827 Y262.216 
G03 X122.807 Y262.587 I-1.02 J-1.216 
G01 X94 Y262.587 
G03 X92.73 Y261.952 I0 J-1.587 
X92.73 Y248.047 I9.27 J-6.952 
X94 Y247.412 I1.27 J0.952 
G01 X115.554 Y247.412 
Z-7 F25
X137.108 Y247.412 F500
G03 X138.128 Y250.216 I0 J1.587 
G01 X123.827 Y262.216 
G03 X122.807 Y262.587 I-1.02 J-1.216 
G01 X94 Y262.587 
G03 X92.73 Y261.952 I0 J-1.587 
X92.73 Y248.047 I9.27 J-6.952 
X94 Y247.412 I1.27 J0.952 
G01 X115.554 Y247.412 
Z-10.5 F25
X137.108 Y247.412 F500
G03 X138.128 Y250.216 I0 J1.587 
G01 X123.827 Y262.216 
G03 X122.807 Y262.587 I-1.02 J-1.216 
G01 X94 Y262.587 
G03 X92.73 Y261.952 I0 J-1.587 
X92.73 Y248.047 I9.27 J-6.952 
X94 Y247.412 I1.27 J0.952 
G01 X115.554 Y247.412 
G00 Z5
G90
(ENTITIES support_led_b_haut_gauche)
X39.869 Y253.736 S7000 M03
Z1
G01 Z-3.5 F25
X47.02 Y259.736 Z-3.5 F500
G03 X46 Y262.54 Z-3.5 I-1.02 J1.216 
G01 X31 Y262.54 Z-3.5 
G03 X29.412 Y260.952 Z-3.5 I0 J-1.587 
G01 X29.412 Y248.952 Z-3.5 
G03 X31 Y247.365 Z-3.5 I1.587 J0 
G01 X31.698 Y247.365 Z-3.5 
G03 X32.719 Y247.736 Z-3.5 I0 J1.587 
G01 X39.869 Y253.736 Z-3.5 
Z-7 F25
X47.02 Y259.736 Z-7 F500
G03 X46 Y262.54 Z-7 I-1.02 J1.216 
G01 X31 Y262.54 Z-7 
G03 X29.412 Y260.952 Z-7 I0 J-1.587 
G01 X29.412 Y248.952 Z-7 
G03 X31 Y247.365 Z-7 I1.587 J0 
G01 X31.698 Y247.365 Z-7 
G03 X32.719 Y247.736 Z-7 I0 J1.587 
G01 X39.869 Y253.736 Z-7 
Z-10.5 F25
X47.02 Y259.736 Z-10.5 F500
G03 X46 Y262.54 Z-10.5 I-1.02 J1.216 
G01 X33.353 Y262.54 Z-10.5 
X31 Y262.54 Z-8.146 
G03 X30.371 Y262.41 Z-7.5 I0 J-1.587 
X29.412 Y260.952 Z-7.5 I0.628 J-1.457 
G01 X29.412 Y249.624 Z-7.5 
X29.412 Y248.952 Z-8.172 
G03 X30.834 Y247.373 Z-10.5 I1.587 J0 
X31 Y247.365 Z-10.5 I0.165 J1.578 
G01 X31.698 Y247.365 Z-10.5 
G03 X32.719 Y247.736 Z-10.5 I0 J1.587 
G01 X39.869 Y253.736 Z-10.5 
G00 Z5
G90
(ENTITIES support_led_b_milieu_gauche)
X6.5 Y246.587 S7000 M03
Z1
G01 Z-3.5 F25
X-1 Y246.587 F500
G03 X-2.587 Y245 I0 J-1.587 
G01 X-2.587 Y233 
G03 X-1 Y231.412 I1.587 J0 
G01 X11.884 Y231.412 
G03 X13.447 Y232.724 I0 J1.587 
G01 X15.563 Y244.724 
G03 X14 Y246.587 I-1.563 J0.275 
G01 X6.5 Y246.587 
Z-7 F25
X-1 Y246.587 F500
G03 X-2.587 Y245 I0 J-1.587 
G01 X-2.587 Y233 
G03 X-1 Y231.412 I1.587 J0 
G01 X11.884 Y231.412 
G03 X13.447 Y232.724 I0 J1.587 
G01 X15.563 Y244.724 
G03 X14 Y246.587 I-1.563 J0.275 
G01 X6.5 Y246.587 
Z-10.5 F25
X-1 Y246.587 F500
G03 X-2.587 Y245 I0 J-1.587 
G01 X-2.587 Y233 
G03 X-1 Y231.412 I1.587 J0 
G01 X11.884 Y231.412 
G03 X13.447 Y232.724 I0 J1.587 
G01 X15.563 Y244.724 
G03 X14 Y246.587 I-1.563 J0.275 
G01 X6.5 Y246.587 
G00 Z5
G90
(ENTITIES support_led_b_bas_gauche)
X17.5 Y215.412 S7000 M03
Z1
G01 Z-3.5 F25
X25 Y215.412 Z-3.5 F500
G03 X26.374 Y217.793 Z-3.5 I0 J1.587 
G01 X19.446 Y229.793 Z-3.5 
G03 X18.071 Y230.587 Z-3.5 I-1.374 J-0.793 
G01 X10 Y230.587 Z-3.5 
G03 X8.412 Y229 Z-3.5 I0 J-1.587 
G01 X8.412 Y217 Z-3.5 
G03 X10 Y215.412 Z-3.5 I1.587 J0 
G01 X17.5 Y215.412 Z-3.5 
Z-7 F25
X25 Y215.412 Z-7 F500
G03 X26.374 Y217.793 Z-7 I0 J1.587 
G01 X19.446 Y229.793 Z-7 
G03 X18.071 Y230.587 Z-7 I-1.374 J-0.793 
G01 X10 Y230.587 Z-7 
G03 X8.412 Y229 Z-7 I0 J-1.587 
G01 X8.412 Y217 Z-7 
G03 X10 Y215.412 Z-7 I1.587 J0 
G01 X17.5 Y215.412 Z-7 
Z-10.5 F25
X25 Y215.412 Z-10.5 F500
G03 X26.374 Y217.793 Z-10.5 I0 J1.587 
G01 X19.446 Y229.793 Z-10.5 
G03 X18.071 Y230.587 Z-10.5 I-1.374 J-0.793 
G01 X10.03 Y230.587 Z-10.5 
X10 Y230.587 Z-10.469 
G03 X8.412 Y229 Z-7.976 I0 J-1.587 
G01 X8.412 Y228.523 Z-7.5 
X8.412 Y217 Z-7.5 
G03 X9.196 Y215.63 Z-7.5 I1.587 J0 
X10 Y215.412 Z-8.342 I0.803 J1.369 
G01 X12.157 Y215.412 Z-10.5 
X17.5 Y215.412 Z-10.5 
G00 Z5
G90
(ENTITIES support_led_a_haut_gauche)
X39.869 Y204.736 S7000 M03
Z1
G01 Z-3.5 F25
X47.02 Y210.736 Z-3.5 F500
G03 X46 Y213.54 Z-3.5 I-1.02 J1.216 
G01 X31 Y213.54 Z-3.5 
G03 X29.412 Y211.952 Z-3.5 I0 J-1.587 
G01 X29.412 Y199.952 Z-3.5 
G03 X31 Y198.365 Z-3.5 I1.587 J0 
G01 X31.698 Y198.365 Z-3.5 
G03 X32.719 Y198.736 Z-3.5 I0 J1.587 
G01 X39.869 Y204.736 Z-3.5 
Z-7 F25
X47.02 Y210.736 Z-7 F500
G03 X46 Y213.54 Z-7 I-1.02 J1.216 
G01 X31 Y213.54 Z-7 
G03 X29.412 Y211.952 Z-7 I0 J-1.587 
G01 X29.412 Y199.952 Z-7 
G03 X31 Y198.365 Z-7 I1.587 J0 
G01 X31.698 Y198.365 Z-7 
G03 X32.719 Y198.736 Z-7 I0 J1.587 
G01 X39.869 Y204.736 Z-7 
Z-10.5 F25
X47.02 Y210.736 Z-10.5 F500
G03 X46 Y213.54 Z-10.5 I-1.02 J1.216 
G01 X32.081 Y213.54 Z-10.5 
X31 Y213.54 Z-9.418 
G03 X29.515 Y212.515 Z-7.5 I0 J-1.587 
X29.412 Y211.952 Z-7.5 I1.484 J-0.562 
G01 X29.412 Y199.952 Z-7.5 
G03 X29.524 Y199.367 Z-7.5 I1.587 J0 
X31 Y198.365 Z-9.394 I1.475 J0.585 
G01 X31.698 Y198.365 Z-10.092 
G03 X32.101 Y198.417 Z-10.5 I0 J1.587 
X32.719 Y198.736 Z-10.5 I-0.402 J1.535 
G01 X39.869 Y204.736 Z-10.5 
G00 Z5
G90
(ENTITIES support_led_a_milieu_gauche)
X6.5 Y197.587 S7000 M03
Z1
G01 Z-3.5 F25
X-1 Y197.587 Z-3.5 F500
G03 X-2.587 Y196 Z-3.5 I0 J-1.587 
G01 X-2.587 Y184 Z-3.5 
G03 X-1 Y182.412 Z-3.5 I1.587 J0 
G01 X11.884 Y182.412 Z-3.5 
G03 X13.447 Y183.724 Z-3.5 I0 J1.587 
G01 X15.563 Y195.724 Z-3.5 
G03 X14 Y197.587 Z-3.5 I-1.563 J0.275 
G01 X6.5 Y197.587 Z-3.5 
Z-7 F25
X-1 Y197.587 Z-7 F500
G03 X-2.587 Y196 Z-7 I0 J-1.587 
G01 X-2.587 Y184 Z-7 
G03 X-1 Y182.412 Z-7 I1.587 J0 
G01 X11.884 Y182.412 Z-7 
G03 X13.447 Y183.724 Z-7 I0 J1.587 
G01 X15.563 Y195.724 Z-7 
G03 X14 Y197.587 Z-7 I-1.563 J0.275 
G01 X6.5 Y197.587 Z-7 
Z-10.5 F25
X0.039 Y197.587 Z-10.5 F500
X-1 Y197.587 Z-9.46 
G03 X-2.498 Y196.522 Z-7.5 I0 J-1.587 
X-2.587 Y196 Z-7.5 I1.498 J-0.522 
G01 X-2.587 Y184 Z-7.5 
G03 X-2.459 Y183.375 Z-7.5 I1.587 J0 
X-1 Y182.412 Z-9.351 I1.459 J0.624 
G01 X0.148 Y182.412 Z-10.5 
X11.884 Y182.412 Z-10.5 
G03 X13.447 Y183.724 Z-10.5 I0 J1.587 
G01 X15.563 Y195.724 Z-10.5 
G03 X14 Y197.587 Z-10.5 I-1.563 J0.275 
G01 X6.5 Y197.587 Z-10.5 
G00 Z5
G90
(ENTITIES support_led_a_bas_gauche)
X17.5 Y166.412 S7000 M03
Z1
G01 Z-3.5 F25
X25 Y166.412 F500
G03 X26.374 Y168.793 I0 J1.587 
G01 X19.446 Y180.793 
G03 X18.071 Y181.587 I-1.374 J-0.793 
G01 X10 Y181.587 
G03 X8.412 Y180 I0 J-1.587 
G01 X8.412 Y168 
G03 X10 Y166.412 I1.587 J0 
G01 X17.5 Y166.412 
Z-7 F25
X25 Y166.412 F500
G03 X26.374 Y168.793 I0 J1.587 
G01 X19.446 Y180.793 
G03 X18.071 Y181.587 I-1.374 J-0.793 
G01 X10 Y181.587 
G03 X8.412 Y180 I0 J-1.587 
G01 X8.412 Y168 
G03 X10 Y166.412 I1.587 J0 
G01 X17.5 Y166.412 
Z-10.5 F25
X25 Y166.412 F500
G03 X26.374 Y168.793 I0 J1.587 
G01 X19.446 Y180.793 
G03 X18.071 Y181.587 I-1.374 J-0.793 
G01 X10 Y181.587 
G03 X8.412 Y180 I0 J-1.587 
G01 X8.412 Y168 
G03 X10 Y166.412 I1.587 J0 
G01 X17.5 Y166.412 
G00 Z5
T0 M06 M02
