(Created with emc2b post processor 2016/04/23 12:45)
(tool change to 3.175 mm Fraise à Rainurer)
T5 M06 G43
G17 G90 G21
G00 X12.5 Y27.75 S7000 M03
Z10
G83 Q3.5 G98 X12.5 Y27.75 Z-10.2 R2 F100
X26.5 Y86.694 
X26.5 Y138.528 
X61.5 Y138.528 
X61.5 Y86.694 
X75.5 Y27.75 
X105.653 Y25.56 
X105.473 Y77.305 
X91.473 Y136.25 
X154.473 Y136.25 
X140.473 Y77.305 
X140.473 Y25.471 
G80
(ENTITIES feuille_h4)
G00 X59.587 Y7 S7000 M03
Z2
G01 Z-3.4 F75
X59.587 Y12 Z-3.4 F400
G03 X58 Y13.587 Z-3.4 I-1.587 J0 
G01 X43.698 Y13.587 Z-3.4 
G03 X42.678 Y10.783 Z-3.4 I0 J-1.587 
G01 X56.979 Y-1.216 Z-3.4 
G03 X59.587 Y0 Z-3.4 I1.02 J1.216 
G01 X59.587 Y7 Z-3.4 
Z-6.8 F75
X59.587 Y12 Z-6.8 F400
G03 X58 Y13.587 Z-6.8 I-1.587 J0 
G01 X43.698 Y13.587 Z-6.8 
G03 X42.678 Y10.783 Z-6.8 I0 J-1.587 
G01 X56.979 Y-1.216 Z-6.8 
G03 X59.587 Y0 Z-6.8 I1.02 J1.216 
G01 X59.587 Y7 Z-6.8 
Z-8.2 F75
X59.587 Y10.165 Z-8.2 F400
X59.587 Y12 Z-10.034 
G03 X59.578 Y12.164 Z-10.2 I-1.587 J0 
X58 Y13.587 Z-10.2 I-1.578 J-0.164 
G01 X43.698 Y13.587 Z-10.2 
G03 X42.678 Y10.783 Z-10.2 I0 J-1.587 
G01 X45.542 Y8.38 Z-10.2 
X47.074 Y7.095 Z-8.2 
X52.571 Y2.483 Z-8.2 
X54.103 Y1.197 Z-10.2 
X56.979 Y-1.216 Z-10.2 
G03 X59.587 Y0 Z-10.2 I1.02 J1.216 
G01 X59.587 Y0.99 Z-10.2 
X59.587 Y2.99 Z-8.2 
X59.587 Y7 Z-8.2 
G00 Z10
G90
(ENTITIES feuille_h3)
X38.17 Y7.216 S7000 M03
Z2
G01 Z-3.4 F75
X31.02 Y13.216 Z-3.4 F400
G03 X28.412 Y12 Z-3.4 I-1.02 J-1.216 
G01 X28.412 Y0 Z-3.4 
G03 X30 Y-1.587 Z-3.4 I1.587 J0 
G01 X44.301 Y-1.587 Z-3.4 
G03 X45.321 Y1.216 Z-3.4 I0 J1.587 
G01 X38.17 Y7.216 Z-3.4 
Z-6.8 F75
X31.02 Y13.216 Z-6.8 F400
G03 X28.412 Y12 Z-6.8 I-1.02 J-1.216 
G01 X28.412 Y0 Z-6.8 
G03 X30 Y-1.587 Z-6.8 I1.587 J0 
G01 X44.301 Y-1.587 Z-6.8 
G03 X45.321 Y1.216 Z-6.8 I0 J1.587 
G01 X38.17 Y7.216 Z-6.8 
Z-8.2 F75
X35.428 Y9.516 Z-8.2 F400
X33.896 Y10.802 Z-10.2 
X31.02 Y13.216 Z-10.2 
G03 X28.412 Y12 Z-10.2 I-1.02 J-1.216 
G01 X28.412 Y11.786 Z-10.2 
X28.412 Y9.786 Z-8.2 
X28.412 Y2.611 Z-8.2 
X28.412 Y0.611 Z-10.2 
X28.412 Y0 Z-10.2 
G03 X30 Y-1.587 Z-10.2 I1.587 J0 
G01 X44.301 Y-1.587 Z-10.2 
G03 X45.321 Y1.216 Z-10.2 I0 J1.587 
G01 X42.457 Y3.619 Z-10.2 
X40.925 Y4.904 Z-8.2 
X38.17 Y7.216 Z-8.2 
G00 Z10
G90
(ENTITIES feuille_b4)
X28.412 Y32 S7000 M03
Z2
G01 Z-3.4 F75
X28.412 Y26 Z-3.4 F400
G03 X30 Y24.412 Z-3.4 I1.587 J0 
G01 X37.298 Y24.412 Z-3.4 
G03 X38.673 Y25.206 Z-3.4 I0 J1.587 
G01 X45.601 Y37.206 Z-3.4 
G03 X44.226 Y39.587 Z-3.4 I-1.374 J0.793 
G01 X30 Y39.587 Z-3.4 
G03 X28.412 Y38 Z-3.4 I0 J-1.587 
G01 X28.412 Y32 Z-3.4 
Z-6.8 F75
X28.412 Y26 Z-6.8 F400
G03 X30 Y24.412 Z-6.8 I1.587 J0 
G01 X37.298 Y24.412 Z-6.8 
G03 X38.673 Y25.206 Z-6.8 I0 J1.587 
G01 X45.601 Y37.206 Z-6.8 
G03 X44.226 Y39.587 Z-6.8 I-1.374 J0.793 
G01 X30 Y39.587 Z-6.8 
G03 X28.412 Y38 Z-6.8 I0 J-1.587 
G01 X28.412 Y32 Z-6.8 
Z-8.7 F75
X28.412 Y28.508 Z-8.7 F400
X28.412 Y27.008 Z-10.2 
X28.412 Y26 Z-10.2 
G03 X30 Y24.412 Z-10.2 I1.587 J0 
G01 X37.298 Y24.412 Z-10.2 
G03 X38.673 Y25.206 Z-10.2 I0 J1.587 
G01 X39.902 Y27.336 Z-10.2 
X40.652 Y28.635 Z-8.7 
X44.24 Y34.849 Z-8.7 
X44.99 Y36.148 Z-10.2 
X45.601 Y37.206 Z-10.2 
G03 X44.226 Y39.587 Z-10.2 I-1.374 J0.793 
G01 X30 Y39.587 Z-10.2 
G03 X28.412 Y38 Z-10.2 I0 J-1.587 
G01 X28.412 Y37.183 Z-10.2 
X28.412 Y35.683 Z-8.7 
X28.412 Y32 Z-8.7 
G00 Z10
G90
(ENTITIES feuille_b3)
X59.587 Y32 S7000 M03
Z2
G01 Z-3.4 F75
X59.587 Y38 Z-3.4 F400
G03 X58 Y39.587 Z-3.4 I-1.587 J0 
G01 X50.701 Y39.587 Z-3.4 
G03 X49.326 Y38.793 Z-3.4 I0 J-1.587 
G01 X42.398 Y26.793 Z-3.4 
G03 X43.773 Y24.412 Z-3.4 I1.374 J-0.793 
G01 X58 Y24.412 Z-3.4 
G03 X59.587 Y26 Z-3.4 I0 J1.587 
G01 X59.587 Y32 Z-3.4 
Z-6.8 F75
X59.587 Y38 Z-6.8 F400
G03 X58 Y39.587 Z-6.8 I-1.587 J0 
G01 X50.701 Y39.587 Z-6.8 
G03 X49.326 Y38.793 Z-6.8 I0 J-1.587 
G01 X42.398 Y26.793 Z-6.8 
G03 X43.773 Y24.412 Z-6.8 I1.374 J-0.793 
G01 X58 Y24.412 Z-6.8 
G03 X59.587 Y26 Z-6.8 I0 J1.587 
G01 X59.587 Y32 Z-6.8 
Z-8.7 F75
X59.587 Y36.247 Z-8.7 F400
X59.587 Y37.747 Z-10.2 
X59.587 Y38 Z-10.2 
G03 X58 Y39.587 Z-10.2 I-1.587 J0 
G01 X50.701 Y39.587 Z-10.2 
G03 X49.326 Y38.793 Z-10.2 I0 J-1.587 
G01 X42.398 Y26.793 Z-10.2 
G03 X43.773 Y24.412 Z-10.2 I1.374 J-0.793 
G01 X58 Y24.412 Z-10.2 
G03 X59.587 Y26 Z-10.2 I0 J1.587 
G01 X59.587 Y27.572 Z-10.2 
X59.587 Y29.072 Z-8.7 
X59.587 Y32 Z-8.7 
G00 Z10
G90
(tron_haut)
X61.412 Y21 S7000 M03
Z2
G01 Z-3.4 F75
X61.412 Y0 Z-3.4 F400
G03 X63 Y-1.587 Z-3.4 I1.587 J0 
G01 X88 Y-1.587 Z-3.4 
G03 X89.587 Y0 Z-3.4 I0 J1.587 
G01 X89.587 Y16.75 Z-3.4 
G03 X88 Y18.337 Z-3.4 I-1.587 J0 
G01 X83.587 Y18.337 Z-3.4 
X83.587 Y20.162 Z-3.4 
X88 Y20.162 Z-3.4 
G03 X89.587 Y21.75 Z-3.4 I0 J1.587 
G01 X89.587 Y43 Z-3.4 
G03 X81 Y51.587 Z-3.4 I-8.587 J0 
G02 X75.587 Y57 Z-3.4 I0 J5.412 
G01 X75.587 Y75.694 Z-3.4 
G03 X74 Y77.281 Z-3.4 I-1.587 J0 
G01 X69.587 Y77.281 Z-3.4 
X69.587 Y79.106 Z-3.4 
X74 Y79.106 Z-3.4 
G03 X75.587 Y80.694 Z-3.4 I0 J1.587 
G01 X75.587 Y127.528 Z-3.4 
G03 X74 Y129.116 Z-3.4 I-1.587 J0 
G01 X69.587 Y129.116 Z-3.4 
X69.587 Y130.941 Z-3.4 
X74 Y130.941 Z-3.4 
G03 X75.587 Y132.528 Z-3.4 I0 J1.587 
G01 X75.587 Y158.711 Z-3.4 
G03 X74.757 Y160.106 Z-3.4 I-1.587 J0 
X61.402 Y165.528 Z-3.4 I-30.757 J-56.606 
X60.973 Y165.587 Z-3.4 I-0.428 J-1.528 
G01 X49 Y165.587 Z-3.4 
X39 Y165.587 Z-3.4 
X27.026 Y165.587 Z-3.4 
G03 X26.597 Y165.528 Z-3.4 I0 J-1.587 
X13.242 Y160.106 Z-3.4 I17.402 J-62.028 
X12.412 Y158.711 Z-3.4 I0.757 J-1.394 
G01 X12.412 Y132.528 Z-3.4 
G03 X14 Y130.941 Z-3.4 I1.587 J0 
G01 X18.412 Y130.941 Z-3.4 
X18.412 Y129.116 Z-3.4 
X14 Y129.116 Z-3.4 
G03 X12.412 Y127.528 Z-3.4 I0 J-1.587 
G01 X12.412 Y80.694 Z-3.4 
G03 X14 Y79.106 Z-3.4 I1.587 J0 
G01 X18.412 Y79.106 Z-3.4 
X18.412 Y77.281 Z-3.4 
X14 Y77.281 Z-3.4 
G03 X12.412 Y75.694 Z-3.4 I0 J-1.587 
G01 X12.412 Y57 Z-3.4 
G02 X7 Y51.587 Z-3.4 I-5.412 J0 
G03 X-1.587 Y43 Z-3.4 I0 J-8.587 
G01 X-1.587 Y21.75 Z-3.4 
G03 X0 Y20.162 Z-3.4 I1.587 J0 
G01 X4.412 Y20.162 Z-3.4 
X4.412 Y18.337 Z-3.4 
X0 Y18.337 Z-3.4 
G03 X-1.587 Y16.75 Z-3.4 I0 J-1.587 
G01 X-1.587 Y0 Z-3.4 
G03 X0 Y-1.587 Z-3.4 I1.587 J0 
G01 X25 Y-1.587 Z-3.4 
G03 X26.587 Y0 Z-3.4 I0 J1.587 
G01 X26.587 Y41.412 Z-3.4 
X39 Y41.412 Z-3.4 
G03 X40.587 Y43 Z-3.4 I0 J1.587 
G01 X40.587 Y103.5 Z-3.4 
X47.412 Y103.5 Z-3.4 
X47.412 Y43 Z-3.4 
G03 X49 Y41.412 Z-3.4 I1.587 J0 
G01 X61.412 Y41.412 Z-3.4 
X61.412 Y21 Z-3.4 
Z-6.8 F75
X61.412 Y0 Z-6.8 F400
G03 X63 Y-1.587 Z-6.8 I1.587 J0 
G01 X88 Y-1.587 Z-6.8 
G03 X89.587 Y0 Z-6.8 I0 J1.587 
G01 X89.587 Y16.75 Z-6.8 
G03 X88 Y18.337 Z-6.8 I-1.587 J0 
G01 X83.587 Y18.337 Z-6.8 
X83.587 Y20.162 Z-6.8 
X88 Y20.162 Z-6.8 
G03 X89.587 Y21.75 Z-6.8 I0 J1.587 
G01 X89.587 Y43 Z-6.8 
G03 X81 Y51.587 Z-6.8 I-8.587 J0 
G02 X75.587 Y57 Z-6.8 I0 J5.412 
G01 X75.587 Y75.694 Z-6.8 
G03 X74 Y77.281 Z-6.8 I-1.587 J0 
G01 X69.587 Y77.281 Z-6.8 
X69.587 Y79.106 Z-6.8 
X74 Y79.106 Z-6.8 
G03 X75.587 Y80.694 Z-6.8 I0 J1.587 
G01 X75.587 Y127.528 Z-6.8 
G03 X74 Y129.116 Z-6.8 I-1.587 J0 
G01 X69.587 Y129.116 Z-6.8 
X69.587 Y130.941 Z-6.8 
X74 Y130.941 Z-6.8 
G03 X75.587 Y132.528 Z-6.8 I0 J1.587 
G01 X75.587 Y158.711 Z-6.8 
G03 X74.757 Y160.106 Z-6.8 I-1.587 J0 
X61.402 Y165.528 Z-6.8 I-30.757 J-56.606 
X60.973 Y165.587 Z-6.8 I-0.428 J-1.528 
G01 X49 Y165.587 Z-6.8 
X39 Y165.587 Z-6.8 
X27.026 Y165.587 Z-6.8 
G03 X26.597 Y165.528 Z-6.8 I0 J-1.587 
X13.242 Y160.106 Z-6.8 I17.402 J-62.028 
X12.412 Y158.711 Z-6.8 I0.757 J-1.394 
G01 X12.412 Y132.528 Z-6.8 
G03 X14 Y130.941 Z-6.8 I1.587 J0 
G01 X18.412 Y130.941 Z-6.8 
X18.412 Y129.116 Z-6.8 
X14 Y129.116 Z-6.8 
G03 X12.412 Y127.528 Z-6.8 I0 J-1.587 
G01 X12.412 Y80.694 Z-6.8 
G03 X14 Y79.106 Z-6.8 I1.587 J0 
G01 X18.412 Y79.106 Z-6.8 
X18.412 Y77.281 Z-6.8 
X14 Y77.281 Z-6.8 
G03 X12.412 Y75.694 Z-6.8 I0 J-1.587 
G01 X12.412 Y57 Z-6.8 
G02 X7 Y51.587 Z-6.8 I-5.412 J0 
G03 X-1.587 Y43 Z-6.8 I0 J-8.587 
G01 X-1.587 Y21.75 Z-6.8 
G03 X0 Y20.162 Z-6.8 I1.587 J0 
G01 X4.412 Y20.162 Z-6.8 
X4.412 Y18.337 Z-6.8 
X0 Y18.337 Z-6.8 
G03 X-1.587 Y16.75 Z-6.8 I0 J-1.587 
G01 X-1.587 Y0 Z-6.8 
G03 X0 Y-1.587 Z-6.8 I1.587 J0 
G01 X25 Y-1.587 Z-6.8 
G03 X26.587 Y0 Z-6.8 I0 J1.587 
G01 X26.587 Y41.412 Z-6.8 
X39 Y41.412 Z-6.8 
G03 X40.587 Y43 Z-6.8 I0 J1.587 
G01 X40.587 Y103.5 Z-6.8 
X47.412 Y103.5 Z-6.8 
X47.412 Y43 Z-6.8 
G03 X49 Y41.412 Z-6.8 I1.587 J0 
G01 X61.412 Y41.412 Z-6.8 
X61.412 Y21 Z-6.8 
Z-10.2 F75
X61.412 Y11.431 Z-10.2 F400
X61.412 Y9.931 Z-8.7 
X61.412 Y2.756 Z-8.7 
X61.412 Y1.256 Z-10.2 
X61.412 Y0 Z-10.2 
G03 X63 Y-1.587 Z-10.2 I1.587 J0 
G01 X88 Y-1.587 Z-10.2 
G03 X89.587 Y0 Z-10.2 I0 J1.587 
G01 X89.587 Y16.75 Z-10.2 
G03 X88 Y18.337 Z-10.2 I-1.587 J0 
G01 X83.587 Y18.337 Z-10.2 
X83.587 Y20.162 Z-10.2 
X88 Y20.162 Z-10.2 
G03 X89.587 Y21.75 Z-10.2 I0 J1.587 
G01 X89.587 Y43 Z-10.2 
G03 X81 Y51.587 Z-10.2 I-8.587 J0 
G02 X75.587 Y57 Z-10.2 I0 J5.412 
G01 X75.587 Y75.694 Z-10.2 
G03 X74 Y77.281 Z-10.2 I-1.587 J0 
G01 X69.587 Y77.281 Z-10.2 
X69.587 Y79.106 Z-10.2 
X74 Y79.106 Z-10.2 
G03 X75.587 Y80.694 Z-10.2 I0 J1.587 
G01 X75.587 Y127.528 Z-10.2 
G03 X74 Y129.116 Z-10.2 I-1.587 J0 
G01 X69.587 Y129.116 Z-10.2 
X69.587 Y130.941 Z-10.2 
X74 Y130.941 Z-10.2 
G03 X75.587 Y132.528 Z-10.2 I0 J1.587 
G01 X75.587 Y158.711 Z-10.2 
G03 X74.757 Y160.106 Z-10.2 I-1.587 J0 
X61.402 Y165.528 Z-10.2 I-30.757 J-56.606 
X60.973 Y165.587 Z-10.2 I-0.428 J-1.528 
G01 X49.304 Y165.587 Z-10.2 
X49 Y165.587 Z-9.895 
X47.804 Y165.587 Z-8.7 
X40.629 Y165.587 Z-8.7 
X39.129 Y165.587 Z-10.2 
X39 Y165.587 Z-10.2 
X27.026 Y165.587 Z-10.2 
G03 X26.597 Y165.528 Z-10.2 I0 J-1.587 
X13.242 Y160.106 Z-10.2 I17.402 J-62.028 
X12.412 Y158.711 Z-10.2 I0.757 J-1.394 
G01 X12.412 Y150.876 Z-10.2 
X12.412 Y149.376 Z-8.7 
X12.412 Y142.201 Z-8.7 
X12.412 Y140.701 Z-10.2 
X12.412 Y132.528 Z-10.2 
G03 X14 Y130.941 Z-10.2 I1.587 J0 
G01 X18.412 Y130.941 Z-10.2 
X18.412 Y129.116 Z-10.2 
X14 Y129.116 Z-10.2 
G03 X12.412 Y127.528 Z-10.2 I0 J-1.587 
G01 X12.412 Y80.694 Z-10.2 
G03 X14 Y79.106 Z-10.2 I1.587 J0 
G01 X18.412 Y79.106 Z-10.2 
X18.412 Y77.281 Z-10.2 
X14 Y77.281 Z-10.2 
G03 X12.412 Y75.694 Z-10.2 I0 J-1.587 
G01 X12.412 Y57 Z-10.2 
G02 X7 Y51.587 Z-10.2 I-5.412 J0 
G03 X-1.587 Y43 Z-10.2 I0 J-8.587 
G01 X-1.587 Y21.75 Z-10.2 
G03 X0 Y20.162 Z-10.2 I1.587 J0 
G01 X4.412 Y20.162 Z-10.2 
X4.412 Y18.337 Z-10.2 
X0 Y18.337 Z-10.2 
G03 X-1.587 Y16.75 Z-10.2 I0 J-1.587 
G01 X-1.587 Y0 Z-10.2 
G03 X0 Y-1.587 Z-10.2 I1.587 J0 
G01 X25 Y-1.587 Z-10.2 
G03 X26.587 Y0 Z-10.2 I0 J1.587 
G01 X26.587 Y0.312 Z-10.2 
X26.587 Y1.812 Z-8.7 
X26.587 Y8.987 Z-8.7 
X26.587 Y10.487 Z-10.2 
X26.587 Y27.446 Z-10.2 
X26.587 Y28.946 Z-8.7 
X26.587 Y36.121 Z-8.7 
X26.587 Y37.621 Z-10.2 
X26.587 Y41.412 Z-10.2 
X39 Y41.412 Z-10.2 
G03 X40.587 Y43 Z-10.2 I0 J1.587 
G01 X40.587 Y103.5 Z-10.2 
X47.412 Y103.5 Z-10.2 
X47.412 Y43 Z-10.2 
G03 X49 Y41.412 Z-10.2 I1.587 J0 
G01 X61.412 Y41.412 Z-10.2 
X61.412 Y38.329 Z-10.2 
X61.412 Y36.829 Z-8.7 
X61.412 Y29.654 Z-8.7 
X61.412 Y28.154 Z-10.2 
X61.412 Y21 Z-10.2 
G00 Z10
G90
(ENTITIES feuille_m1)
X70.852 Y222.412 S7000 M03
Z2
G01 Z-3.4 F75
X78.313 Y222.412 Z-3.4 F400
G03 X79.877 Y224.275 Z-3.4 I0 J1.587 
G01 X77.761 Y236.275 Z-3.4 
G03 X76.197 Y237.587 Z-3.4 I-1.563 J-0.275 
G01 X63.39 Y237.587 Z-3.4 
G03 X61.803 Y236 Z-3.4 I0 J-1.587 
G01 X61.803 Y224 Z-3.4 
G03 X63.39 Y222.412 Z-3.4 I1.587 J0 
G01 X70.852 Y222.412 Z-3.4 
Z-6.8 F75
X78.313 Y222.412 Z-6.8 F400
G03 X79.877 Y224.275 Z-6.8 I0 J1.587 
G01 X77.761 Y236.275 Z-6.8 
G03 X76.197 Y237.587 Z-6.8 I-1.563 J-0.275 
G01 X63.39 Y237.587 Z-6.8 
G03 X61.803 Y236 Z-6.8 I0 J-1.587 
G01 X61.803 Y224 Z-6.8 
G03 X63.39 Y222.412 Z-6.8 I1.587 J0 
G01 X70.852 Y222.412 Z-6.8 
Z-8.7 F75
X74.587 Y222.412 Z-8.7 F400
X76.087 Y222.412 Z-10.2 
X78.313 Y222.412 Z-10.2 
G03 X79.877 Y224.275 Z-10.2 I0 J1.587 
G01 X77.761 Y236.275 Z-10.2 
G03 X76.197 Y237.587 Z-10.2 I-1.563 J-0.275 
G01 X74.087 Y237.587 Z-10.2 
X72.587 Y237.587 Z-8.7 
X65.412 Y237.587 Z-8.7 
X63.912 Y237.587 Z-10.2 
X63.39 Y237.587 Z-10.2 
G03 X61.803 Y236 Z-10.2 I0 J-1.587 
G01 X61.803 Y224 Z-10.2 
G03 X63.39 Y222.412 Z-10.2 I1.587 J0 
G01 X65.912 Y222.412 Z-10.2 
X67.412 Y222.412 Z-8.7 
X70.852 Y222.412 Z-8.7 
G00 Z10
G90
(ENTITIES feuille_m2)
X70.852 Y204.412 S7000 M03
Z2
G01 Z-3.4 F75
X78.313 Y204.412 Z-3.4 F400
G03 X79.877 Y206.275 Z-3.4 I0 J1.587 
G01 X77.761 Y218.275 Z-3.4 
G03 X76.197 Y219.587 Z-3.4 I-1.563 J-0.275 
G01 X63.39 Y219.587 Z-3.4 
G03 X61.803 Y218 Z-3.4 I0 J-1.587 
G01 X61.803 Y206 Z-3.4 
G03 X63.39 Y204.412 Z-3.4 I1.587 J0 
G01 X70.852 Y204.412 Z-3.4 
Z-6.8 F75
X78.313 Y204.412 Z-6.8 F400
G03 X79.877 Y206.275 Z-6.8 I0 J1.587 
G01 X77.761 Y218.275 Z-6.8 
G03 X76.197 Y219.587 Z-6.8 I-1.563 J-0.275 
G01 X63.39 Y219.587 Z-6.8 
G03 X61.803 Y218 Z-6.8 I0 J-1.587 
G01 X61.803 Y206 Z-6.8 
G03 X63.39 Y204.412 Z-6.8 I1.587 J0 
G01 X70.852 Y204.412 Z-6.8 
Z-8.7 F75
X73.587 Y204.412 Z-8.7 F400
X75.087 Y204.412 Z-10.2 
X78.313 Y204.412 Z-10.2 
G03 X79.877 Y206.275 Z-10.2 I0 J1.587 
G01 X77.761 Y218.275 Z-10.2 
G03 X76.197 Y219.587 Z-10.2 I-1.563 J-0.275 
G01 X76.087 Y219.587 Z-10.2 
X74.587 Y219.587 Z-8.7 
X67.412 Y219.587 Z-8.7 
X65.912 Y219.587 Z-10.2 
X63.39 Y219.587 Z-10.2 
G03 X61.803 Y218 Z-10.2 I0 J-1.587 
G01 X61.803 Y206 Z-10.2 
G03 X63.39 Y204.412 Z-10.2 I1.587 J0 
G01 X64.912 Y204.412 Z-10.2 
X66.412 Y204.412 Z-8.7 
X70.852 Y204.412 Z-8.7 
G00 Z10
G90
(ENTITIES feuille_m3)
X86.503 Y195 S7000 M03
Z2
G01 Z-3.4 F75
X86.503 Y188 Z-3.4 F400
G03 X88.091 Y186.412 Z-3.4 I1.587 J0 
G01 X103.014 Y186.412 Z-3.4 
G03 X104.577 Y188.275 Z-3.4 I0 J1.587 
G01 X102.461 Y200.275 Z-3.4 
G03 X100.898 Y201.587 Z-3.4 I-1.563 J-0.275 
G01 X88.091 Y201.587 Z-3.4 
G03 X86.503 Y200 Z-3.4 I0 J-1.587 
G01 X86.503 Y195 Z-3.4 
Z-6.8 F75
X86.503 Y188 Z-6.8 F400
G03 X88.091 Y186.412 Z-6.8 I1.587 J0 
G01 X103.014 Y186.412 Z-6.8 
G03 X104.577 Y188.275 Z-6.8 I0 J1.587 
G01 X102.461 Y200.275 Z-6.8 
G03 X100.898 Y201.587 Z-6.8 I-1.563 J-0.275 
G01 X88.091 Y201.587 Z-6.8 
G03 X86.503 Y200 Z-6.8 I0 J-1.587 
G01 X86.503 Y195 Z-6.8 
Z-8.7 F75
X86.503 Y191.412 Z-8.7 F400
X86.503 Y189.912 Z-10.2 
X86.503 Y188 Z-10.2 
G03 X88.091 Y186.412 Z-10.2 I1.587 J0 
G01 X103.014 Y186.412 Z-10.2 
G03 X104.577 Y188.275 Z-10.2 I0 J1.587 
G01 X104.464 Y188.915 Z-10.2 
X104.204 Y190.393 Z-8.7 
X102.958 Y197.459 Z-8.7 
X102.697 Y198.936 Z-10.2 
X102.461 Y200.275 Z-10.2 
G03 X100.898 Y201.587 Z-10.2 I-1.563 J-0.275 
G01 X88.091 Y201.587 Z-10.2 
G03 X86.506 Y200.087 Z-10.2 I0 J-1.587 
X86.503 Y200 Z-10.112 I1.585 J-0.087 
G01 X86.503 Y198.587 Z-8.7 
X86.503 Y195 Z-8.7 
G00 Z10
G90
(ENTITIES feuille_m4)
X86.412 Y177 S7000 M03
Z2
G01 Z-3.4 F75
X86.412 Y170 Z-3.4 F400
G03 X88 Y168.412 Z-3.4 I1.587 J0 
G01 X102.922 Y168.412 Z-3.4 
G03 X104.486 Y170.275 Z-3.4 I0 J1.587 
G01 X102.37 Y182.275 Z-3.4 
G03 X100.806 Y183.587 Z-3.4 I-1.563 J-0.275 
G01 X88 Y183.587 Z-3.4 
G03 X86.412 Y182 Z-3.4 I0 J-1.587 
G01 X86.412 Y177 Z-3.4 
Z-6.8 F75
X86.412 Y170 Z-6.8 F400
G03 X88 Y168.412 Z-6.8 I1.587 J0 
G01 X102.922 Y168.412 Z-6.8 
G03 X104.486 Y170.275 Z-6.8 I0 J1.587 
G01 X102.37 Y182.275 Z-6.8 
G03 X100.806 Y183.587 Z-6.8 I-1.563 J-0.275 
G01 X88 Y183.587 Z-6.8 
G03 X86.412 Y182 Z-6.8 I0 J-1.587 
G01 X86.412 Y177 Z-6.8 
Z-8.7 F75
X86.412 Y173.412 Z-8.7 F400
X86.412 Y171.912 Z-10.2 
X86.412 Y170 Z-10.2 
G03 X88 Y168.412 Z-10.2 I1.587 J0 
G01 X89.912 Y168.412 Z-10.2 
X91.412 Y168.412 Z-8.7 
X98.587 Y168.412 Z-8.7 
X100.087 Y168.412 Z-10.2 
X102.922 Y168.412 Z-10.2 
G03 X104.486 Y170.275 Z-10.2 I0 J1.587 
G01 X102.37 Y182.275 Z-10.2 
G03 X100.806 Y183.587 Z-10.2 I-1.563 J-0.275 
G01 X100.087 Y183.587 Z-10.2 
X98.587 Y183.587 Z-8.7 
X91.412 Y183.587 Z-8.7 
X89.912 Y183.587 Z-10.2 
X88 Y183.587 Z-10.2 
G03 X86.414 Y182.087 Z-10.2 I0 J-1.587 
X86.412 Y182 Z-10.112 I1.585 J-0.087 
G01 X86.412 Y180.587 Z-8.7 
X86.412 Y177 Z-8.7 
G00 Z10
G90
(ENTITIES feuille_h1)
X117.271 Y159.131 S7000 M03
Z2
G01 Z-3.4 F75
X110.02 Y165.216 Z-3.4 F300
G03 X107.412 Y164 Z-3.4 I-1.02 J-1.216 
G01 X107.412 Y152 Z-3.4 
G03 X109 Y150.412 Z-3.4 I1.587 J0 
G01 X123.301 Y150.412 Z-3.4 
G03 X124.321 Y153.216 Z-3.4 I0 J1.587 
G01 X117.271 Y159.131 Z-3.4 
Z-6.8 F75
X110.02 Y165.216 Z-6.8 F300
G03 X107.412 Y164 Z-6.8 I-1.02 J-1.216 
G01 X107.412 Y152 Z-6.8 
G03 X109 Y150.412 Z-6.8 I1.587 J0 
G01 X123.301 Y150.412 Z-6.8 
G03 X124.321 Y153.216 Z-6.8 I0 J1.587 
G01 X117.271 Y159.131 Z-6.8 
Z-8.7 F75
X114.523 Y161.437 Z-8.7 F300
X113.374 Y162.401 Z-10.2 
X110.02 Y165.216 Z-10.2 
G03 X107.414 Y164.087 Z-10.2 I-1.02 J-1.216 
X107.412 Y164 Z-10.112 I1.585 J-0.087 
G01 X107.412 Y162.587 Z-8.7 
X107.412 Y155.412 Z-8.7 
X107.412 Y153.912 Z-10.2 
X107.412 Y152 Z-10.2 
G03 X109 Y150.412 Z-10.2 I1.587 J0 
G01 X123.301 Y150.412 Z-10.2 
G03 X124.321 Y153.216 Z-10.2 I0 J1.587 
G01 X121.168 Y155.861 Z-10.2 
X120.019 Y156.825 Z-8.7 
X117.271 Y159.131 Z-8.7 
G00 Z10
G90
(ENTITIES feuille_h2)
X127.743 Y157.694 S7000 M03
Z2
G01 Z-3.4 F75
X135.979 Y150.783 Z-3.4 F300
G03 X138.587 Y152 Z-3.4 I1.02 J1.216 
G01 X138.587 Y164 Z-3.4 
G03 X137 Y165.587 Z-3.4 I-1.587 J0 
G01 X122.698 Y165.587 Z-3.4 
G03 X121.678 Y162.783 Z-3.4 I0 J-1.587 
G01 X127.743 Y157.694 Z-3.4 
Z-6.8 F75
X135.979 Y150.783 Z-6.8 F300
G03 X138.587 Y152 Z-6.8 I1.02 J1.216 
G01 X138.587 Y164 Z-6.8 
G03 X137 Y165.587 Z-6.8 I-1.587 J0 
G01 X122.698 Y165.587 Z-6.8 
G03 X121.678 Y162.783 Z-6.8 I0 J-1.587 
G01 X127.743 Y157.694 Z-6.8 
Z-8.7 F75
X130.491 Y155.388 Z-8.7 F300
X131.64 Y154.424 Z-10.2 
X135.979 Y150.783 Z-10.2 
G03 X138.587 Y152 Z-10.2 I1.02 J1.216 
G01 X138.587 Y153.912 Z-10.2 
X138.587 Y155.412 Z-8.7 
X138.587 Y162.587 Z-8.7 
X138.587 Y164 Z-10.112 
G03 X138.585 Y164.087 Z-10.2 I-1.587 J0 
X137 Y165.587 Z-10.2 I-1.585 J-0.087 
G01 X122.698 Y165.587 Z-10.2 
G03 X121.678 Y162.783 Z-10.2 I0 J-1.587 
G01 X123.846 Y160.964 Z-10.2 
X124.995 Y160 Z-8.7 
X127.743 Y157.694 Z-8.7 
G00 Z10
G90
(ENTITIES feuille_b1)
X124.553 Y132.257 S7000 M03
Z2
G01 Z-3.4 F75
X121.398 Y126.793 Z-3.4 F300
G03 X122.773 Y124.412 Z-3.4 I1.374 J-0.793 
G01 X137 Y124.412 Z-3.4 
G03 X138.587 Y126 Z-3.4 I0 J1.587 
G01 X138.587 Y138 Z-3.4 
G03 X137 Y139.587 Z-3.4 I-1.587 J0 
G01 X129.701 Y139.587 Z-3.4 
G03 X128.326 Y138.793 Z-3.4 I0 J-1.587 
G01 X124.553 Y132.257 Z-3.4 
Z-6.8 F75
X121.398 Y126.793 Z-6.8 F300
G03 X122.773 Y124.412 Z-6.8 I1.374 J-0.793 
G01 X137 Y124.412 Z-6.8 
G03 X138.587 Y126 Z-6.8 I0 J1.587 
G01 X138.587 Y138 Z-6.8 
G03 X137 Y139.587 Z-6.8 I-1.587 J0 
G01 X129.701 Y139.587 Z-6.8 
G03 X128.326 Y138.793 Z-6.8 I0 J-1.587 
G01 X124.553 Y132.257 Z-6.8 
Z-8.7 F75
X122.759 Y129.15 Z-8.7 F300
X122.009 Y127.851 Z-10.2 
X121.398 Y126.793 Z-10.2 
G03 X122.773 Y124.412 Z-10.2 I1.374 J-0.793 
G01 X137 Y124.412 Z-10.2 
G03 X138.587 Y126 Z-10.2 I0 J1.587 
G01 X138.587 Y126.912 Z-10.2 
X138.587 Y128.412 Z-8.7 
X138.587 Y135.587 Z-8.7 
X138.587 Y137.087 Z-10.2 
X138.587 Y138 Z-10.2 
G03 X137 Y139.587 Z-10.2 I-1.587 J0 
G01 X129.701 Y139.587 Z-10.2 
G03 X128.326 Y138.793 Z-10.2 I0 J-1.587 
G01 X127.097 Y136.663 Z-10.2 
X126.347 Y135.364 Z-8.7 
X124.553 Y132.257 Z-8.7 
G00 Z10
G90
(ENTITIES feuille_b2)
X121.013 Y130.992 S7000 M03
Z2
G01 Z-3.4 F75
X124.601 Y137.206 Z-3.4 F300
G03 X123.226 Y139.587 Z-3.4 I-1.374 J0.793 
G01 X109 Y139.587 Z-3.4 
G03 X107.412 Y138 Z-3.4 I0 J-1.587 
G01 X107.412 Y126 Z-3.4 
G03 X109 Y124.412 Z-3.4 I1.587 J0 
G01 X116.298 Y124.412 Z-3.4 
G03 X117.673 Y125.206 Z-3.4 I0 J1.587 
G01 X121.013 Y130.992 Z-3.4 
Z-6.8 F75
X124.601 Y137.206 Z-6.8 F300
G03 X123.226 Y139.587 Z-6.8 I-1.374 J0.793 
G01 X109 Y139.587 Z-6.8 
G03 X107.412 Y138 Z-6.8 I0 J-1.587 
G01 X107.412 Y126 Z-6.8 
G03 X109 Y124.412 Z-6.8 I1.587 J0 
G01 X116.298 Y124.412 Z-6.8 
G03 X117.673 Y125.206 Z-6.8 I0 J1.587 
G01 X121.013 Y130.992 Z-6.8 
Z-8.7 F75
X122.807 Y134.099 Z-8.7 F300
X123.557 Y135.398 Z-10.2 
X124.601 Y137.206 Z-10.2 
G03 X123.226 Y139.587 Z-10.2 I-1.374 J0.793 
G01 X109 Y139.587 Z-10.2 
G03 X107.412 Y138 Z-10.2 I0 J-1.587 
G01 X107.412 Y137.087 Z-10.2 
X107.412 Y135.587 Z-8.7 
X107.412 Y128.412 Z-8.7 
X107.412 Y126.912 Z-10.2 
X107.412 Y126 Z-10.2 
G03 X109 Y124.412 Z-10.2 I1.587 J0 
G01 X116.298 Y124.412 Z-10.2 
G03 X117.673 Y125.206 Z-10.2 I0 J1.587 
G01 X118.469 Y126.586 Z-10.2 
X119.219 Y127.885 Z-8.7 
X121.013 Y130.992 Z-8.7 
G00 Z10
G90
(tron_bas)
X105.56 Y147 S7000 M03
Z2
G01 Z-3.4 F75
X105.56 Y164 Z-3.4 F400
G03 X103.973 Y165.587 Z-3.4 I-1.587 J0 
G01 X78.973 Y165.587 Z-3.4 
G03 X77.385 Y164 Z-3.4 I0 J-1.587 
G01 X77.385 Y147.25 Z-3.4 
G03 X78.973 Y145.662 Z-3.4 I1.587 J0 
G01 X83.385 Y145.662 Z-3.4 
X83.385 Y143.837 Z-3.4 
X78.973 Y143.837 Z-3.4 
G03 X77.385 Y142.25 Z-3.4 I0 J-1.587 
G01 X77.385 Y121 Z-3.4 
G03 X85.973 Y112.412 Z-3.4 I8.587 J0 
G02 X91.385 Y107 Z-3.4 I0 J-5.412 
G01 X91.385 Y88.305 Z-3.4 
G03 X92.973 Y86.718 Z-3.4 I1.587 J0 
G01 X97.385 Y86.718 Z-3.4 
X97.385 Y84.893 Z-3.4 
X92.973 Y84.893 Z-3.4 
G03 X91.385 Y83.305 Z-3.4 I0 J-1.587 
G01 X91.385 Y36.471 Z-3.4 
G03 X92.973 Y34.883 Z-3.4 I1.587 J0 
G01 X97.385 Y34.883 Z-3.4 
X97.385 Y33.058 Z-3.4 
X92.973 Y33.058 Z-3.4 
G03 X91.385 Y31.471 Z-3.4 I0 J-1.587 
G01 X91.385 Y5.288 Z-3.4 
G03 X92.215 Y3.893 Z-3.4 I1.587 J0 
X105.571 Y-1.528 Z-3.4 I30.757 J56.606 
X106 Y-1.587 Z-3.4 I0.428 J1.528 
G01 X117.973 Y-1.587 Z-3.4 
G03 X119.56 Y0 Z-3.4 I0 J1.587 
G01 X119.56 Y60.5 Z-3.4 
X126.385 Y60.5 Z-3.4 
X126.385 Y0 Z-3.4 
G03 X127.973 Y-1.587 Z-3.4 I1.587 J0 
G01 X139.946 Y-1.587 Z-3.4 
G03 X140.375 Y-1.528 Z-3.4 I0 J1.587 
X153.731 Y3.893 Z-3.4 I-17.402 J62.028 
X154.56 Y5.288 Z-3.4 I-0.757 J1.394 
G01 X154.56 Y31.471 Z-3.4 
G03 X152.973 Y33.058 Z-3.4 I-1.587 J0 
G01 X148.56 Y33.058 Z-3.4 
X148.56 Y34.883 Z-3.4 
X152.973 Y34.883 Z-3.4 
G03 X154.56 Y36.471 Z-3.4 I0 J1.587 
G01 X154.56 Y83.305 Z-3.4 
G03 X152.973 Y84.893 Z-3.4 I-1.587 J0 
G01 X148.56 Y84.893 Z-3.4 
X148.56 Y86.718 Z-3.4 
X152.973 Y86.718 Z-3.4 
G03 X154.56 Y88.305 Z-3.4 I0 J1.587 
G01 X154.56 Y107 Z-3.4 
G02 X159.973 Y112.412 Z-3.4 I5.412 J0 
G03 X168.56 Y121 Z-3.4 I0 J8.587 
G01 X168.56 Y142.25 Z-3.4 
G03 X166.973 Y143.837 Z-3.4 I-1.587 J0 
G01 X162.56 Y143.837 Z-3.4 
X162.56 Y145.662 Z-3.4 
X166.973 Y145.662 Z-3.4 
G03 X168.56 Y147.25 Z-3.4 I0 J1.587 
G01 X168.56 Y164 Z-3.4 
G03 X166.973 Y165.587 Z-3.4 I-1.587 J0 
G01 X141.973 Y165.587 Z-3.4 
G03 X140.385 Y164 Z-3.4 I0 J-1.587 
G01 X140.385 Y122.587 Z-3.4 
X127.973 Y122.587 Z-3.4 
X117.973 Y122.587 Z-3.4 
X105.56 Y122.587 Z-3.4 
X105.56 Y147 Z-3.4 
Z-6.8 F75
X105.56 Y164 Z-6.8 F400
G03 X103.973 Y165.587 Z-6.8 I-1.587 J0 
G01 X78.973 Y165.587 Z-6.8 
G03 X77.385 Y164 Z-6.8 I0 J-1.587 
G01 X77.385 Y147.25 Z-6.8 
G03 X78.973 Y145.662 Z-6.8 I1.587 J0 
G01 X83.385 Y145.662 Z-6.8 
X83.385 Y143.837 Z-6.8 
X78.973 Y143.837 Z-6.8 
G03 X77.385 Y142.25 Z-6.8 I0 J-1.587 
G01 X77.385 Y121 Z-6.8 
G03 X85.973 Y112.412 Z-6.8 I8.587 J0 
G02 X91.385 Y107 Z-6.8 I0 J-5.412 
G01 X91.385 Y88.305 Z-6.8 
G03 X92.973 Y86.718 Z-6.8 I1.587 J0 
G01 X97.385 Y86.718 Z-6.8 
X97.385 Y84.893 Z-6.8 
X92.973 Y84.893 Z-6.8 
G03 X91.385 Y83.305 Z-6.8 I0 J-1.587 
G01 X91.385 Y36.471 Z-6.8 
G03 X92.973 Y34.883 Z-6.8 I1.587 J0 
G01 X97.385 Y34.883 Z-6.8 
X97.385 Y33.058 Z-6.8 
X92.973 Y33.058 Z-6.8 
G03 X91.385 Y31.471 Z-6.8 I0 J-1.587 
G01 X91.385 Y5.288 Z-6.8 
G03 X92.215 Y3.893 Z-6.8 I1.587 J0 
X105.571 Y-1.528 Z-6.8 I30.757 J56.606 
X106 Y-1.587 Z-6.8 I0.428 J1.528 
G01 X117.973 Y-1.587 Z-6.8 
G03 X119.56 Y0 Z-6.8 I0 J1.587 
G01 X119.56 Y60.5 Z-6.8 
X126.385 Y60.5 Z-6.8 
X126.385 Y0 Z-6.8 
G03 X127.973 Y-1.587 Z-6.8 I1.587 J0 
G01 X139.946 Y-1.587 Z-6.8 
G03 X140.375 Y-1.528 Z-6.8 I0 J1.587 
X153.731 Y3.893 Z-6.8 I-17.402 J62.028 
X154.56 Y5.288 Z-6.8 I-0.757 J1.394 
G01 X154.56 Y31.471 Z-6.8 
G03 X152.973 Y33.058 Z-6.8 I-1.587 J0 
G01 X148.56 Y33.058 Z-6.8 
X148.56 Y34.883 Z-6.8 
X152.973 Y34.883 Z-6.8 
G03 X154.56 Y36.471 Z-6.8 I0 J1.587 
G01 X154.56 Y83.305 Z-6.8 
G03 X152.973 Y84.893 Z-6.8 I-1.587 J0 
G01 X148.56 Y84.893 Z-6.8 
X148.56 Y86.718 Z-6.8 
X152.973 Y86.718 Z-6.8 
G03 X154.56 Y88.305 Z-6.8 I0 J1.587 
G01 X154.56 Y107 Z-6.8 
G02 X159.973 Y112.412 Z-6.8 I5.412 J0 
G03 X168.56 Y121 Z-6.8 I0 J8.587 
G01 X168.56 Y142.25 Z-6.8 
G03 X166.973 Y143.837 Z-6.8 I-1.587 J0 
G01 X162.56 Y143.837 Z-6.8 
X162.56 Y145.662 Z-6.8 
X166.973 Y145.662 Z-6.8 
G03 X168.56 Y147.25 Z-6.8 I0 J1.587 
G01 X168.56 Y164 Z-6.8 
G03 X166.973 Y165.587 Z-6.8 I-1.587 J0 
G01 X141.973 Y165.587 Z-6.8 
G03 X140.385 Y164 Z-6.8 I0 J-1.587 
G01 X140.385 Y122.587 Z-6.8 
X127.973 Y122.587 Z-6.8 
X117.973 Y122.587 Z-6.8 
X105.56 Y122.587 Z-6.8 
X105.56 Y147 Z-6.8 
Z-10.2 F75
X105.56 Y151.554 Z-10.2 F400
X105.56 Y153.054 Z-8.7 
X105.56 Y160.229 Z-8.7 
X105.56 Y161.729 Z-10.2 
X105.56 Y164 Z-10.2 
G03 X103.973 Y165.587 Z-10.2 I-1.587 J0 
G01 X100.253 Y165.587 Z-10.2 
X98.753 Y165.587 Z-8.7 
X91.578 Y165.587 Z-8.7 
X90.078 Y165.587 Z-10.2 
X78.973 Y165.587 Z-10.2 
G03 X77.385 Y164 Z-10.2 I0 J-1.587 
G01 X77.385 Y147.25 Z-10.2 
G03 X78.973 Y145.662 Z-10.2 I1.587 J0 
G01 X83.385 Y145.662 Z-10.2 
X83.385 Y143.837 Z-10.2 
X78.973 Y143.837 Z-10.2 
G03 X77.385 Y142.25 Z-10.2 I0 J-1.587 
G01 X77.385 Y121 Z-10.2 
G03 X85.973 Y112.412 Z-10.2 I8.587 J0 
G02 X91.385 Y107 Z-10.2 I0 J-5.412 
G01 X91.385 Y88.305 Z-10.2 
G03 X92.973 Y86.718 Z-10.2 I1.587 J0 
G01 X97.385 Y86.718 Z-10.2 
X97.385 Y84.893 Z-10.2 
X92.973 Y84.893 Z-10.2 
G03 X91.385 Y83.305 Z-10.2 I0 J-1.587 
G01 X91.385 Y36.471 Z-10.2 
G03 X92.973 Y34.883 Z-10.2 I1.587 J0 
G01 X97.385 Y34.883 Z-10.2 
X97.385 Y33.058 Z-10.2 
X92.973 Y33.058 Z-10.2 
G03 X91.385 Y31.471 Z-10.2 I0 J-1.587 
G01 X91.385 Y5.288 Z-10.2 
G03 X92.215 Y3.893 Z-10.2 I1.587 J0 
X105.571 Y-1.528 Z-10.2 I30.757 J56.606 
X106 Y-1.587 Z-10.2 I0.428 J1.528 
G01 X117.973 Y-1.587 Z-10.2 
G03 X119.56 Y0 Z-10.2 I0 J1.587 
G01 X119.56 Y60.5 Z-10.2 
X126.385 Y60.5 Z-10.2 
X126.385 Y0 Z-10.2 
G03 X127.973 Y-1.587 Z-10.2 I1.587 J0 
G01 X139.946 Y-1.587 Z-10.2 
G03 X140.375 Y-1.528 Z-10.2 I0 J1.587 
X153.731 Y3.893 Z-10.2 I-17.402 J62.028 
X154.56 Y5.288 Z-10.2 I-0.757 J1.394 
G01 X154.56 Y12.581 Z-10.2 
X154.56 Y14.081 Z-8.7 
X154.56 Y21.256 Z-8.7 
X154.56 Y22.756 Z-10.2 
X154.56 Y31.471 Z-10.2 
G03 X152.973 Y33.058 Z-10.2 I-1.587 J0 
G01 X148.56 Y33.058 Z-10.2 
X148.56 Y34.883 Z-10.2 
X152.973 Y34.883 Z-10.2 
G03 X154.56 Y36.471 Z-10.2 I0 J1.587 
G01 X154.56 Y83.305 Z-10.2 
G03 X152.973 Y84.893 Z-10.2 I-1.587 J0 
G01 X148.56 Y84.893 Z-10.2 
X148.56 Y86.718 Z-10.2 
X152.973 Y86.718 Z-10.2 
G03 X154.56 Y88.305 Z-10.2 I0 J1.587 
G01 X154.56 Y107 Z-10.2 
G02 X159.973 Y112.412 Z-10.2 I5.412 J0 
G03 X168.56 Y121 Z-10.2 I0 J8.587 
G01 X168.56 Y142.25 Z-10.2 
G03 X166.973 Y143.837 Z-10.2 I-1.587 J0 
G01 X162.56 Y143.837 Z-10.2 
X162.56 Y145.662 Z-10.2 
X166.973 Y145.662 Z-10.2 
G03 X168.56 Y147.25 Z-10.2 I0 J1.587 
G01 X168.56 Y164 Z-10.2 
G03 X166.973 Y165.587 Z-10.2 I-1.587 J0 
G01 X160.401 Y165.587 Z-10.2 
X158.901 Y165.587 Z-8.7 
X151.726 Y165.587 Z-8.7 
X150.226 Y165.587 Z-10.2 
X141.973 Y165.587 Z-10.2 
G03 X140.385 Y164 Z-10.2 I0 J-1.587 
G01 X140.385 Y163.381 Z-10.2 
X140.385 Y161.881 Z-8.7 
X140.385 Y154.706 Z-8.7 
X140.385 Y153.206 Z-10.2 
X140.385 Y135.539 Z-10.2 
X140.385 Y134.039 Z-8.7 
X140.385 Y126.864 Z-8.7 
X140.385 Y125.364 Z-10.2 
X140.385 Y122.587 Z-10.2 
X127.973 Y122.587 Z-10.2 
X117.973 Y122.587 Z-10.2 
X105.56 Y122.587 Z-10.2 
X105.56 Y127.252 Z-10.2 
X105.56 Y128.752 Z-8.7 
X105.56 Y135.927 Z-8.7 
X105.56 Y137.427 Z-10.2 
X105.56 Y147 Z-10.2 
G00 Z10
G90
X10 Y176 S7000 M03
G83 Q3.5 X10 Y176 Z-1 R2 F100
X10.271 Y194 
X10.271 Y212 
X10.271 Y230 
X10.271 Y248 
X10.271 Y266 
X157 Y266 
X157 Y248 
X157 Y230 
X157 Y212 
X157 Y194 
X157 Y176 
G80
(ENTITIES branche_h4)
G00 X154 Y168.412 S7000 M03
Z2
G01 Z-3.4 F75
X165 Y168.412 Z-3.4 F400
G03 X166.27 Y169.047 Z-3.4 I0 J1.587 
X166.27 Y182.952 Z-3.4 I-9.27 J6.952 
X165 Y183.587 Z-3.4 I-1.27 J-0.952 
G01 X111.105 Y183.587 Z-3.4 
G03 X110.085 Y180.783 Z-3.4 I0 J-1.587 
G01 X124.386 Y168.783 Z-3.4 
G03 X125.406 Y168.412 Z-3.4 I1.02 J1.216 
G01 X154 Y168.412 Z-3.4 
Z-6.8 F75
X165 Y168.412 Z-6.8 F400
G03 X166.27 Y169.047 Z-6.8 I0 J1.587 
X166.27 Y182.952 Z-6.8 I-9.27 J6.952 
X165 Y183.587 Z-6.8 I-1.27 J-0.952 
G01 X111.105 Y183.587 Z-6.8 
G03 X110.085 Y180.783 Z-6.8 I0 J-1.587 
G01 X124.386 Y168.783 Z-6.8 
G03 X125.406 Y168.412 Z-6.8 I1.02 J1.216 
G01 X154 Y168.412 Z-6.8 
Z-8.7 F75
X157.587 Y168.412 Z-8.7 F400
X159.087 Y168.412 Z-10.2 
X165 Y168.412 Z-10.2 
G03 X166.27 Y169.047 Z-10.2 I0 J1.587 
X166.27 Y182.952 Z-10.2 I-9.27 J6.952 
X165 Y183.587 Z-10.2 I-1.27 J-0.952 
G01 X158.087 Y183.587 Z-10.2 
X156.587 Y183.587 Z-8.7 
X149.412 Y183.587 Z-8.7 
X147.912 Y183.587 Z-10.2 
X111.105 Y183.587 Z-10.2 
G03 X110.085 Y180.783 Z-10.2 I0 J-1.587 
G01 X124.386 Y168.783 Z-10.2 
G03 X125.406 Y168.412 Z-10.2 I1.02 J1.216 
G01 X148.912 Y168.412 Z-10.2 
X150.412 Y168.412 Z-8.7 
X154 Y168.412 Z-8.7 
G00 Z10
G90
(ENTITIES branche_h3)
X153 Y186.412 S7000 M03
Z2
G01 Z-3.4 F75
X165 Y186.412 Z-3.4 F400
G03 X166.27 Y187.047 Z-3.4 I0 J1.587 
X166.27 Y200.952 Z-3.4 I-9.27 J6.952 
X165 Y201.587 Z-3.4 I-1.27 J-0.952 
G01 X111.105 Y201.587 Z-3.4 
G03 X110.085 Y198.783 Z-3.4 I0 J-1.587 
G01 X124.386 Y186.783 Z-3.4 
G03 X125.406 Y186.412 Z-3.4 I1.02 J1.216 
G01 X153 Y186.412 Z-3.4 
Z-6.8 F75
X165 Y186.412 Z-6.8 F400
G03 X166.27 Y187.047 Z-6.8 I0 J1.587 
X166.27 Y200.952 Z-6.8 I-9.27 J6.952 
X165 Y201.587 Z-6.8 I-1.27 J-0.952 
G01 X111.105 Y201.587 Z-6.8 
G03 X110.085 Y198.783 Z-6.8 I0 J-1.587 
G01 X124.386 Y186.783 Z-6.8 
G03 X125.406 Y186.412 Z-6.8 I1.02 J1.216 
G01 X153 Y186.412 Z-6.8 
Z-8.7 F75
X157.587 Y186.412 Z-8.7 F400
X159.087 Y186.412 Z-10.2 
X165 Y186.412 Z-10.2 
G03 X166.27 Y187.047 Z-10.2 I0 J1.587 
X166.27 Y200.952 Z-10.2 I-9.27 J6.952 
X165 Y201.587 Z-10.2 I-1.27 J-0.952 
G01 X158.087 Y201.587 Z-10.2 
X156.587 Y201.587 Z-8.7 
X149.412 Y201.587 Z-8.7 
X147.912 Y201.587 Z-10.2 
X111.105 Y201.587 Z-10.2 
G03 X110.085 Y198.783 Z-10.2 I0 J-1.587 
G01 X124.386 Y186.783 Z-10.2 
G03 X125.406 Y186.412 Z-10.2 I1.02 J1.216 
G01 X148.912 Y186.412 Z-10.2 
X150.412 Y186.412 Z-8.7 
X153 Y186.412 Z-8.7 
G00 Z10
G90
(ENTITIES branche_m4)
X153 Y204.412 S7000 M03
Z2
G01 Z-3.4 F75
X165 Y204.412 Z-3.4 F400
G03 X166.27 Y205.047 Z-3.4 I0 J1.587 
X166.27 Y218.952 Z-3.4 I-9.27 J6.952 
X165 Y219.587 Z-3.4 I-1.27 J-0.952 
G01 X87.271 Y219.587 Z-3.4 
G03 X85.707 Y217.724 Z-3.4 I0 J-1.587 
G01 X87.823 Y205.724 Z-3.4 
G03 X89.387 Y204.412 Z-3.4 I1.563 J0.275 
G01 X153 Y204.412 Z-3.4 
Z-6.8 F75
X165 Y204.412 Z-6.8 F400
G03 X166.27 Y205.047 Z-6.8 I0 J1.587 
X166.27 Y218.952 Z-6.8 I-9.27 J6.952 
X165 Y219.587 Z-6.8 I-1.27 J-0.952 
G01 X87.271 Y219.587 Z-6.8 
G03 X85.707 Y217.724 Z-6.8 I0 J-1.587 
G01 X87.823 Y205.724 Z-6.8 
G03 X89.387 Y204.412 Z-6.8 I1.563 J0.275 
G01 X153 Y204.412 Z-6.8 
Z-8.7 F75
X158.587 Y204.412 Z-8.7 F400
X160.087 Y204.412 Z-10.2 
X165 Y204.412 Z-10.2 
G03 X166.27 Y205.047 Z-10.2 I0 J1.587 
X166.27 Y218.952 Z-10.2 I-9.27 J6.952 
X165 Y219.587 Z-10.2 I-1.27 J-0.952 
G01 X135.087 Y219.587 Z-10.2 
X133.587 Y219.587 Z-8.7 
X126.412 Y219.587 Z-8.7 
X124.912 Y219.587 Z-10.2 
X87.271 Y219.587 Z-10.2 
G03 X85.707 Y217.724 Z-10.2 I0 J-1.587 
G01 X87.823 Y205.724 Z-10.2 
G03 X89.387 Y204.412 Z-10.2 I1.563 J0.275 
G01 X149.912 Y204.412 Z-10.2 
X151.412 Y204.412 Z-8.7 
X153 Y204.412 Z-8.7 
G00 Z10
G90
(ENTITIES branche_m3)
X130 Y222.412 S7000 M03
Z2
G01 Z-3.4 F75
X165 Y222.412 Z-3.4 F400
G03 X166.27 Y223.047 Z-3.4 I0 J1.587 
X166.27 Y236.952 Z-3.4 I-9.27 J6.952 
X165 Y237.587 Z-3.4 I-1.27 J-0.952 
G01 X87.271 Y237.587 Z-3.4 
G03 X85.707 Y235.724 Z-3.4 I0 J-1.587 
G01 X87.823 Y223.724 Z-3.4 
G03 X89.387 Y222.412 Z-3.4 I1.563 J0.275 
G01 X130 Y222.412 Z-3.4 
Z-6.8 F75
X165 Y222.412 Z-6.8 F400
G03 X166.27 Y223.047 Z-6.8 I0 J1.587 
X166.27 Y236.952 Z-6.8 I-9.27 J6.952 
X165 Y237.587 Z-6.8 I-1.27 J-0.952 
G01 X87.271 Y237.587 Z-6.8 
G03 X85.707 Y235.724 Z-6.8 I0 J-1.587 
G01 X87.823 Y223.724 Z-6.8 
G03 X89.387 Y222.412 Z-6.8 I1.563 J0.275 
G01 X130 Y222.412 Z-6.8 
Z-8.7 F75
X133.587 Y222.412 Z-8.7 F400
X135.087 Y222.412 Z-10.2 
X165 Y222.412 Z-10.2 
G03 X166.27 Y223.047 Z-10.2 I0 J1.587 
X166.27 Y236.952 Z-10.2 I-9.27 J6.952 
X165 Y237.587 Z-10.2 I-1.27 J-0.952 
G01 X140.087 Y237.587 Z-10.2 
X138.587 Y237.587 Z-8.7 
X131.412 Y237.587 Z-8.7 
X129.912 Y237.587 Z-10.2 
X87.271 Y237.587 Z-10.2 
G03 X87.167 Y237.584 Z-10.2 I0 J-1.587 
X85.731 Y236.385 Z-8.2 I0.103 J-1.584 
X85.707 Y235.724 Z-8.2 I1.539 J-0.385 
G01 X87.823 Y223.724 Z-8.2 
G03 X87.911 Y223.413 Z-8.2 I1.563 J0.275 
X89.387 Y222.412 Z-10.093 I1.475 J0.586 
G01 X89.493 Y222.412 Z-10.2 
X124.912 Y222.412 Z-10.2 
X126.412 Y222.412 Z-8.7 
X130 Y222.412 Z-8.7 
G00 Z10
G90
(ENTITIES branche_b1)
X135 Y240.412 S7000 M03
Z2
G01 Z-3.4 F75
X165 Y240.412 Z-3.4 F400
G03 X166.27 Y241.047 Z-3.4 I0 J1.587 
X166.27 Y254.952 Z-3.4 I-9.27 J6.952 
X165 Y255.587 Z-3.4 I-1.27 J-0.952 
G01 X116.186 Y255.587 Z-3.4 
G03 X114.812 Y254.793 Z-3.4 I0 J-1.587 
G01 X107.883 Y242.793 Z-3.4 
G03 X109.258 Y240.412 Z-3.4 I1.374 J-0.793 
G01 X135 Y240.412 Z-3.4 
Z-6.8 F75
X165 Y240.412 Z-6.8 F400
G03 X166.27 Y241.047 Z-6.8 I0 J1.587 
X166.27 Y254.952 Z-6.8 I-9.27 J6.952 
X165 Y255.587 Z-6.8 I-1.27 J-0.952 
G01 X116.186 Y255.587 Z-6.8 
G03 X114.812 Y254.793 Z-6.8 I0 J-1.587 
G01 X107.883 Y242.793 Z-6.8 
G03 X109.258 Y240.412 Z-6.8 I1.374 J-0.793 
G01 X135 Y240.412 Z-6.8 
Z-8.7 F75
X138.587 Y240.412 Z-8.7 F400
X140.087 Y240.412 Z-10.2 
X165 Y240.412 Z-10.2 
G03 X166.27 Y241.047 Z-10.2 I0 J1.587 
X166.27 Y254.952 Z-10.2 I-9.27 J6.952 
X165 Y255.587 Z-10.2 I-1.27 J-0.952 
G01 X141.087 Y255.587 Z-10.2 
X139.587 Y255.587 Z-8.7 
X132.412 Y255.587 Z-8.7 
X130.912 Y255.587 Z-10.2 
X116.186 Y255.587 Z-10.2 
G03 X114.812 Y254.793 Z-10.2 I0 J-1.587 
G01 X107.883 Y242.793 Z-10.2 
G03 X109.258 Y240.412 Z-10.2 I1.374 J-0.793 
G01 X129.912 Y240.412 Z-10.2 
X131.412 Y240.412 Z-8.7 
X135 Y240.412 Z-8.7 
G00 Z10
G90
(ENTITIES branche_b3)
X136 Y258.412 S7000 M03
Z2
G01 Z-3.4 F75
X165 Y258.412 Z-3.4 F400
G03 X166.27 Y259.047 Z-3.4 I0 J1.587 
X166.27 Y272.952 Z-3.4 I-9.27 J6.952 
X165 Y273.587 Z-3.4 I-1.27 J-0.952 
G01 X116.186 Y273.587 Z-3.4 
G03 X114.812 Y272.793 Z-3.4 I0 J-1.587 
G01 X107.883 Y260.793 Z-3.4 
G03 X109.258 Y258.412 Z-3.4 I1.374 J-0.793 
G01 X136 Y258.412 Z-3.4 
Z-6.8 F75
X165 Y258.412 Z-6.8 F400
G03 X166.27 Y259.047 Z-6.8 I0 J1.587 
X166.27 Y272.952 Z-6.8 I-9.27 J6.952 
X165 Y273.587 Z-6.8 I-1.27 J-0.952 
G01 X116.186 Y273.587 Z-6.8 
G03 X114.812 Y272.793 Z-6.8 I0 J-1.587 
G01 X107.883 Y260.793 Z-6.8 
G03 X109.258 Y258.412 Z-6.8 I1.374 J-0.793 
G01 X136 Y258.412 Z-6.8 
Z-8.7 F75
X139.587 Y258.412 Z-8.7 F400
X141.087 Y258.412 Z-10.2 
X165 Y258.412 Z-10.2 
G03 X166.27 Y259.047 Z-10.2 I0 J1.587 
X166.27 Y272.952 Z-10.2 I-9.27 J6.952 
X165 Y273.587 Z-10.2 I-1.27 J-0.952 
G01 X143.087 Y273.587 Z-10.2 
X141.587 Y273.587 Z-8.7 
X134.412 Y273.587 Z-8.7 
X132.912 Y273.587 Z-10.2 
X116.186 Y273.587 Z-10.2 
G03 X114.812 Y272.793 Z-10.2 I0 J-1.587 
G01 X107.883 Y260.793 Z-10.2 
G03 X109.258 Y258.412 Z-10.2 I1.374 J-0.793 
G01 X130.912 Y258.412 Z-10.2 
X132.412 Y258.412 Z-8.7 
X136 Y258.412 Z-8.7 
G00 Z10
G90
(ENTITIES branche_b2)
X28 Y258.412 S7000 M03
Z2
G01 Z-3.4 F75
X51.084 Y258.412 Z-3.4 F400
G03 X52.459 Y259.206 Z-3.4 I0 J1.587 
G01 X59.387 Y271.206 Z-3.4 
G03 X58.012 Y273.587 Z-3.4 I-1.374 J0.793 
G01 X2.271 Y273.587 Z-3.4 
G03 X1.001 Y272.952 Z-3.4 I0 J-1.587 
X1.001 Y259.047 Z-3.4 I9.27 J-6.952 
X2.271 Y258.412 Z-3.4 I1.27 J0.952 
G01 X28 Y258.412 Z-3.4 
Z-6.8 F75
X51.084 Y258.412 Z-6.8 F400
G03 X52.459 Y259.206 Z-6.8 I0 J1.587 
G01 X59.387 Y271.206 Z-6.8 
G03 X58.012 Y273.587 Z-6.8 I-1.374 J0.793 
G01 X2.271 Y273.587 Z-6.8 
G03 X1.001 Y272.952 Z-6.8 I0 J-1.587 
X1.001 Y259.047 Z-6.8 I9.27 J-6.952 
X2.271 Y258.412 Z-6.8 I1.27 J0.952 
G01 X28 Y258.412 Z-6.8 
Z-8.7 F75
X31.587 Y258.412 Z-8.7 F400
X33.087 Y258.412 Z-10.2 
X51.084 Y258.412 Z-10.2 
G03 X52.459 Y259.206 Z-10.2 I0 J1.587 
G01 X59.387 Y271.206 Z-10.2 
G03 X58.012 Y273.587 Z-10.2 I-1.374 J0.793 
G01 X33.087 Y273.587 Z-10.2 
X31.587 Y273.587 Z-8.7 
X24.412 Y273.587 Z-8.7 
X22.912 Y273.587 Z-10.2 
X2.271 Y273.587 Z-10.2 
G03 X1.001 Y272.952 Z-10.2 I0 J-1.587 
X1.001 Y259.047 Z-10.2 I9.27 J-6.952 
X2.271 Y258.412 Z-10.2 I1.27 J0.952 
G01 X22.912 Y258.412 Z-10.2 
X24.412 Y258.412 Z-8.7 
X28 Y258.412 Z-8.7 
G00 Z10
G90
(ENTITIES branche_b4)
X27 Y240.412 S7000 M03
Z2
G01 Z-3.4 F75
X51.084 Y240.412 Z-3.4 F400
G03 X52.459 Y241.206 Z-3.4 I0 J1.587 
G01 X59.387 Y253.206 Z-3.4 
G03 X58.012 Y255.587 Z-3.4 I-1.374 J0.793 
G01 X2.271 Y255.587 Z-3.4 
G03 X1.001 Y254.952 Z-3.4 I0 J-1.587 
X1.001 Y241.047 Z-3.4 I9.27 J-6.952 
X2.271 Y240.412 Z-3.4 I1.27 J0.952 
G01 X27 Y240.412 Z-3.4 
Z-6.8 F75
X51.084 Y240.412 Z-6.8 F400
G03 X52.459 Y241.206 Z-6.8 I0 J1.587 
G01 X59.387 Y253.206 Z-6.8 
G03 X58.012 Y255.587 Z-6.8 I-1.374 J0.793 
G01 X2.271 Y255.587 Z-6.8 
G03 X1.001 Y254.952 Z-6.8 I0 J-1.587 
X1.001 Y241.047 Z-6.8 I9.27 J-6.952 
X2.271 Y240.412 Z-6.8 I1.27 J0.952 
G01 X27 Y240.412 Z-6.8 
Z-8.7 F75
X30.587 Y240.412 Z-8.7 F400
X32.087 Y240.412 Z-10.2 
X51.084 Y240.412 Z-10.2 
G03 X52.459 Y241.206 Z-10.2 I0 J1.587 
G01 X59.387 Y253.206 Z-10.2 
G03 X58.012 Y255.587 Z-10.2 I-1.374 J0.793 
G01 X32.087 Y255.587 Z-10.2 
X30.587 Y255.587 Z-8.7 
X23.412 Y255.587 Z-8.7 
X21.912 Y255.587 Z-10.2 
X2.271 Y255.587 Z-10.2 
G03 X1.001 Y254.952 Z-10.2 I0 J-1.587 
X1.001 Y241.047 Z-10.2 I9.27 J-6.952 
X2.271 Y240.412 Z-10.2 I1.27 J0.952 
G01 X21.912 Y240.412 Z-10.2 
X23.412 Y240.412 Z-8.7 
X27 Y240.412 Z-8.7 
G00 Z10
G90
(ENTITIES branche_h2)
X28 Y222.412 S7000 M03
Z2
G01 Z-3.4 F75
X56.165 Y222.412 Z-3.4 F400
G03 X57.186 Y225.216 Z-3.4 I0 J1.587 
G01 X42.885 Y237.216 Z-3.4 
G03 X41.864 Y237.587 Z-3.4 I-1.02 J-1.216 
G01 X2.271 Y237.587 Z-3.4 
G03 X1.001 Y236.952 Z-3.4 I0 J-1.587 
X1.001 Y223.047 Z-3.4 I9.27 J-6.952 
X2.271 Y222.412 Z-3.4 I1.27 J0.952 
G01 X28 Y222.412 Z-3.4 
Z-6.8 F75
X56.165 Y222.412 Z-6.8 F400
G03 X57.186 Y225.216 Z-6.8 I0 J1.587 
G01 X42.885 Y237.216 Z-6.8 
G03 X41.864 Y237.587 Z-6.8 I-1.02 J-1.216 
G01 X2.271 Y237.587 Z-6.8 
G03 X1.001 Y236.952 Z-6.8 I0 J-1.587 
X1.001 Y223.047 Z-6.8 I9.27 J-6.952 
X2.271 Y222.412 Z-6.8 I1.27 J0.952 
G01 X28 Y222.412 Z-6.8 
Z-8.7 F75
X31.587 Y222.412 Z-8.7 F400
X33.087 Y222.412 Z-10.2 
X56.165 Y222.412 Z-10.2 
G03 X57.186 Y225.216 Z-10.2 I0 J1.587 
G01 X42.885 Y237.216 Z-10.2 
G03 X41.864 Y237.587 Z-10.2 I-1.02 J-1.216 
G01 X32.087 Y237.587 Z-10.2 
X30.587 Y237.587 Z-8.7 
X23.412 Y237.587 Z-8.7 
X21.912 Y237.587 Z-10.2 
X2.271 Y237.587 Z-10.2 
G03 X1.001 Y236.952 Z-10.2 I0 J-1.587 
X1.001 Y223.047 Z-10.2 I9.27 J-6.952 
X2.271 Y222.412 Z-10.2 I1.27 J0.952 
G01 X22.912 Y222.412 Z-10.2 
X24.412 Y222.412 Z-8.7 
X28 Y222.412 Z-8.7 
G00 Z10
G90
(ENTITIES branche_h1)
X28 Y204.412 S7000 M03
Z2
G01 Z-3.4 F75
X56.165 Y204.412 Z-3.4 F400
G03 X57.186 Y207.216 Z-3.4 I0 J1.587 
G01 X42.885 Y219.216 Z-3.4 
G03 X41.864 Y219.587 Z-3.4 I-1.02 J-1.216 
G01 X2.271 Y219.587 Z-3.4 
G03 X1.001 Y218.952 Z-3.4 I0 J-1.587 
X1.001 Y205.047 Z-3.4 I9.27 J-6.952 
X2.271 Y204.412 Z-3.4 I1.27 J0.952 
G01 X28 Y204.412 Z-3.4 
Z-6.8 F75
X56.165 Y204.412 Z-6.8 F400
G03 X57.186 Y207.216 Z-6.8 I0 J1.587 
G01 X42.885 Y219.216 Z-6.8 
G03 X41.864 Y219.587 Z-6.8 I-1.02 J-1.216 
G01 X2.271 Y219.587 Z-6.8 
G03 X1.001 Y218.952 Z-6.8 I0 J-1.587 
X1.001 Y205.047 Z-6.8 I9.27 J-6.952 
X2.271 Y204.412 Z-6.8 I1.27 J0.952 
G01 X28 Y204.412 Z-6.8 
Z-8.7 F75
X31.587 Y204.412 Z-8.7 F400
X33.087 Y204.412 Z-10.2 
X56.165 Y204.412 Z-10.2 
G03 X57.186 Y207.216 Z-10.2 I0 J1.587 
G01 X42.885 Y219.216 Z-10.2 
G03 X41.864 Y219.587 Z-10.2 I-1.02 J-1.216 
G01 X34.087 Y219.587 Z-10.2 
X32.587 Y219.587 Z-8.7 
X25.412 Y219.587 Z-8.7 
X23.912 Y219.587 Z-10.2 
X2.271 Y219.587 Z-10.2 
G03 X1.001 Y218.952 Z-10.2 I0 J-1.587 
X1.001 Y205.047 Z-10.2 I9.27 J-6.952 
X2.271 Y204.412 Z-10.2 I1.27 J0.952 
G01 X22.912 Y204.412 Z-10.2 
X24.412 Y204.412 Z-8.7 
X28 Y204.412 Z-8.7 
G00 Z10
G90
(ENTITIES branche_m2)
X37 Y186.412 S7000 M03
Z2
G01 Z-3.4 F75
X80 Y186.412 Z-3.4 F400
G03 X81.563 Y188.275 Z-3.4 I0 J1.587 
G01 X79.447 Y200.275 Z-3.4 
G03 X77.884 Y201.587 Z-3.4 I-1.563 J-0.275 
G01 X2.271 Y201.587 Z-3.4 
G03 X1.001 Y200.952 Z-3.4 I0 J-1.587 
X1.001 Y187.047 Z-3.4 I9.27 J-6.952 
X2.271 Y186.412 Z-3.4 I1.27 J0.952 
G01 X37 Y186.412 Z-3.4 
Z-6.8 F75
X80 Y186.412 Z-6.8 F400
G03 X81.563 Y188.275 Z-6.8 I0 J1.587 
G01 X79.447 Y200.275 Z-6.8 
G03 X77.884 Y201.587 Z-6.8 I-1.563 J-0.275 
G01 X2.271 Y201.587 Z-6.8 
G03 X1.001 Y200.952 Z-6.8 I0 J-1.587 
X1.001 Y187.047 Z-6.8 I9.27 J-6.952 
X2.271 Y186.412 Z-6.8 I1.27 J0.952 
G01 X37 Y186.412 Z-6.8 
Z-8.7 F75
X41.587 Y186.412 Z-8.7 F400
X43.087 Y186.412 Z-10.2 
X80 Y186.412 Z-10.2 
G03 X81.563 Y188.275 Z-10.2 I0 J1.587 
G01 X79.447 Y200.275 Z-10.2 
G03 X77.884 Y201.587 Z-10.2 I-1.563 J-0.275 
G01 X75.087 Y201.587 Z-10.2 
X73.587 Y201.587 Z-8.7 
X66.412 Y201.587 Z-8.7 
X64.912 Y201.587 Z-10.2 
X33.087 Y201.587 Z-10.2 
X31.587 Y201.587 Z-8.7 
X24.412 Y201.587 Z-8.7 
X22.912 Y201.587 Z-10.2 
X2.271 Y201.587 Z-10.2 
G03 X1.001 Y200.952 Z-10.2 I0 J-1.587 
X1.001 Y187.047 Z-10.2 I9.27 J-6.952 
X2.271 Y186.412 Z-10.2 I1.27 J0.952 
G01 X32.912 Y186.412 Z-10.2 
X34.412 Y186.412 Z-8.7 
X37 Y186.412 Z-8.7 
G00 Z10
G90
(ENTITIES branche_m1)
X45 Y168.412 S7000 M03
Z2
G01 Z-3.4 F75
X79.728 Y168.412 Z-3.4 F400
G03 X81.292 Y170.275 Z-3.4 I0 J1.587 
G01 X79.176 Y182.275 Z-3.4 
G03 X77.612 Y183.587 Z-3.4 I-1.563 J-0.275 
G01 X2 Y183.587 Z-3.4 
G03 X0.73 Y182.952 Z-3.4 I0 J-1.587 
X0.73 Y169.047 Z-3.4 I9.27 J-6.952 
X2 Y168.412 Z-3.4 I1.27 J0.952 
G01 X45 Y168.412 Z-3.4 
Z-6.8 F75
X79.728 Y168.412 Z-6.8 F400
G03 X81.292 Y170.275 Z-6.8 I0 J1.587 
G01 X79.176 Y182.275 Z-6.8 
G03 X77.612 Y183.587 Z-6.8 I-1.563 J-0.275 
G01 X2 Y183.587 Z-6.8 
G03 X0.73 Y182.952 Z-6.8 I0 J-1.587 
X0.73 Y169.047 Z-6.8 I9.27 J-6.952 
X2 Y168.412 Z-6.8 I1.27 J0.952 
G01 X45 Y168.412 Z-6.8 
Z-8.7 F75
X49.587 Y168.412 Z-8.7 F400
X51.087 Y168.412 Z-10.2 
X79.728 Y168.412 Z-10.2 
G03 X81.292 Y170.275 Z-10.2 I0 J1.587 
G01 X79.176 Y182.275 Z-10.2 
G03 X77.612 Y183.587 Z-10.2 I-1.563 J-0.275 
G01 X42.087 Y183.587 Z-10.2 
X40.587 Y183.587 Z-8.7 
X33.412 Y183.587 Z-8.7 
X31.912 Y183.587 Z-10.2 
X2 Y183.587 Z-10.2 
G03 X0.73 Y182.952 Z-10.2 I0 J-1.587 
X0.73 Y169.047 Z-10.2 I9.27 J-6.952 
X2 Y168.412 Z-10.2 I1.27 J0.952 
G01 X40.912 Y168.412 Z-10.2 
X42.412 Y168.412 Z-8.7 
X45 Y168.412 Z-8.7 
G00 Z10
T0 M06 M02
